(/Applications/pcbgcode.repo/pcb-gcode.ulp)
(Copyright 2005 - 2012 by John Johnson)
(See readme.txt for licensing terms.)
(This file generated from the board:)
(.../eurorack/EFM-VCF6c/EFM_VCF6c.brd)
(Current profile is .../pcbgcode.repo/profiles/mach.pp  )
(This file generated 10/8/15 9:11 PM)
(Settings from pcb-machine.h)
(spindle on time = 0.0000)
(spindle speed = 20000.0000)
(tool change at 0.0000  0.0000  3.0000  )
(feed rate xy = F0     )
(feed rate z  = F20    )
(Z Axis Settings)
(  High     Up        Down     Drill)
(1.0000  	0.0500  	-0.0040 	-0.0730 )
(Settings from pcb-defaults.h)
(isolate min = 0.0010)
(isolate max = 0.0150)
(isolate step = 0.0015)
(Generated bottom outlines, bottom drill, )
(Unit of measure: inch)
( Tool|       Size       |  Min Sub |  Max Sub |   Count )
( T01 | 0.610mm 0.0240in | 0.0000in | 0.0000in |       0 )
( T02 | 0.800mm 0.0315in | 0.0000in | 0.0000in |       0 )
( T03 | 0.813mm 0.0320in | 0.0000in | 0.0000in |       0 )
( T04 | 1.016mm 0.0400in | 0.0000in | 0.0000in |       0 )
( T05 | 1.200mm 0.0472in | 0.0000in | 0.0000in |       0 )
(Inch Mode)
G20
(Absolute Coordinates)
G90
S20000
G00 Z1.0000  
G00 X0.0000  Y0.0000  
M03
G04 P0.000000
M05
G00 Z3.0000  
M06 T01  ; 0.0240  
G01 Z0.0000  F20    
M06 
G00 Z0.0500  
M03
G04 P0.000000
G82 X-0.4750 Y0.8750  Z-0.0730 F20    R0.0500  P0.010000
G82 X-0.4750 Y0.9750  
G82 X-0.4750 Y1.0750  
G82 X-0.9500 Y1.5500  
G82 X-0.9500 Y1.6500  
G82 X-0.9500 Y1.7500  
M05
G00 Z3.0000  
G00 X0.0000  Y0.0000  
M06 T02  ; 0.0315  
G01 Z0.0000  F20    
M06 
G00 Z0.0500  
M03
G04 P0.000000
G82 X-1.0750 Y1.3750  Z-0.0730 F20    R0.0500  P0.010000
G82 X-1.3250 Y1.5750  
G82 X-1.5500 Y1.5250  
G82 X-2.0500 Y1.6750  
G82 X-2.1500 Y1.7250  
G82 X-2.6000 Y2.0250  
G82 X-3.0000 Y2.0250  
G82 X-3.0250 Y1.7250  
G82 X-1.8000 Y0.6500  
G82 X-1.0750 Y1.8250  
M05
G00 Z3.0000  
G00 X0.0000  Y0.0000  
M06 T03  ; 0.0320  
G01 Z0.0000  F20    
M06 
G00 Z0.0500  
M03
G04 P0.000000
G82 X-0.4000 Y0.6000  Z-0.0730 F20    R0.0500  P0.010000
G82 X-0.6000 Y0.4250  
G82 X-0.7000 Y0.6000  
G82 X-0.8500 Y0.6250  
G82 X-0.8500 Y0.7250  
G82 X-0.7000 Y0.8500  
G82 X-0.8000 Y1.0500  
G82 X-0.9000 Y1.0500  
G82 X-0.9250 Y1.2500  
G82 X-0.9250 Y1.3500  
G82 X-1.1500 Y1.2500  
G82 X-1.2500 Y1.2500  
G82 X-1.2000 Y1.1250  
G82 X-1.3750 Y1.1500  
G82 X-1.5500 Y1.1500  
G82 X-1.7000 Y1.1500  
G82 X-1.7250 Y1.0000  
G82 X-1.9000 Y1.1500  
G82 X-2.0000 Y1.1500  
G82 X-2.1000 Y1.1500  
G82 X-2.2000 Y1.1500  
G82 X-2.3000 Y1.1500  
G82 X-2.4000 Y1.1500  
G82 X-2.5000 Y1.1500  
G82 X-2.6000 Y1.1500  
G82 X-2.8250 Y1.0500  
G82 X-2.6750 Y0.8250  
G82 X-2.6250 Y0.7500  
G82 X-2.7250 Y0.7500  
G82 X-2.8250 Y0.7500  
G82 X-2.9000 Y0.5500  
G82 X-3.1000 Y0.4750  
G82 X-3.1000 Y0.6500  
G82 X-3.4000 Y0.6500  
G82 X-3.4000 Y0.4750  
G82 X-2.9000 Y0.2500  
G82 X-2.5000 Y0.6750  
G82 X-2.3000 Y0.5500  
G82 X-2.2000 Y0.6750  
G82 X-2.0500 Y0.7250  
G82 X-1.9500 Y0.7250  
G82 X-2.0250 Y1.0000  
G82 X-2.0000 Y1.4500  
G82 X-1.9000 Y1.4500  
G82 X-1.7750 Y1.6000  
G82 X-1.6500 Y1.7000  
G82 X-1.5500 Y1.7000  
G82 X-1.3250 Y1.7250  
G82 X-1.2250 Y1.7250  
G82 X-1.2500 Y1.9500  
G82 X-1.1000 Y2.1500  
G82 X-1.0250 Y2.2000  
G82 X-1.1000 Y2.2500  
G82 X-1.1250 Y2.3750  
G82 X-1.0500 Y2.4250  
G82 X-1.1250 Y2.4750  
G82 X-1.3500 Y2.5750  
G82 X-1.5500 Y2.4000  
G82 X-1.6500 Y2.4000  
G82 X-1.6500 Y2.5250  
G82 X-1.6500 Y2.5750  
G82 X-1.8500 Y2.4000  
G82 X-1.9500 Y2.4000  
G82 X-1.9500 Y2.5250  
G82 X-1.9500 Y2.5750  
G82 X-2.1500 Y2.4000  
G82 X-2.1500 Y2.3000  
G82 X-2.1500 Y2.2500  
G82 X-2.2500 Y2.4000  
G82 X-2.2500 Y2.5250  
G82 X-2.2500 Y2.5750  
G82 X-2.4500 Y2.4000  
G82 X-2.5500 Y2.4000  
G82 X-2.5500 Y2.5250  
G82 X-2.5500 Y2.5750  
G82 X-2.7250 Y2.4250  
G82 X-2.7500 Y2.3000  
G82 X-2.7500 Y2.2500  
G82 X-2.4500 Y2.2500  
G82 X-2.4500 Y2.3000  
G82 X-2.4250 Y2.1250  
G82 X-2.2750 Y1.9000  
G82 X-2.2250 Y1.8250  
G82 X-2.3250 Y1.8250  
G82 X-2.4250 Y1.8250  
G82 X-2.6250 Y1.8500  
G82 X-2.7000 Y1.6000  
G82 X-2.6000 Y1.4500  
G82 X-2.5000 Y1.4500  
G82 X-2.4000 Y1.4500  
G82 X-2.3000 Y1.4500  
G82 X-2.2000 Y1.4500  
G82 X-2.1000 Y1.4500  
G82 X-2.2000 Y1.6000  
G82 X-2.3000 Y1.6000  
G82 X-2.0500 Y1.8250  
G82 X-2.0000 Y1.9000  
G82 X-2.1000 Y1.9000  
G82 X-1.7750 Y1.9000  
G82 X-1.8500 Y2.2500  
G82 X-1.8500 Y2.3000  
G82 X-1.5500 Y2.3000  
G82 X-1.5500 Y2.2500  
G82 X-1.2500 Y2.2500  
G82 X-0.9500 Y1.9500  
G82 X-1.3750 Y1.4500  
G82 X-1.5500 Y1.4500  
G82 X-1.7000 Y1.4500  
G82 X-1.5000 Y0.9000  
G82 X-1.3250 Y0.9000  
G82 X-1.2000 Y0.8250  
G82 X-1.0000 Y0.8500  
G82 X-1.0500 Y0.6000  
G82 X-0.9000 Y0.4250  
G82 X-1.0500 Y0.3000  
G82 X-1.3250 Y0.6000  
G82 X-1.5000 Y0.6000  
G82 X-1.6500 Y0.5500  
G82 X-1.6500 Y0.2500  
G82 X-2.3000 Y0.2500  
G82 X-3.0000 Y1.6000  
G82 X-2.9250 Y1.8500  
G82 X-3.0500 Y2.3000  
G82 X-3.0250 Y2.4250  
G82 X-2.8500 Y2.5750  
M05
G00 Z3.0000  
G00 X0.0000  Y0.0000  
M06 T04  ; 0.0400  
G01 Z0.0000  F20    
M06 
G00 Z0.0500  
M03
G04 P0.000000
G82 X-0.4750 Y0.4000  Z-0.0730 F20    R0.0500  P0.010000
G82 X-1.2000 Y0.3500  
G82 X-1.8500 Y0.4250  
G82 X-2.5000 Y0.4250  
G82 X-3.4000 Y0.7750  
G82 X-3.4000 Y1.1000  
G82 X-3.4000 Y1.2000  
G82 X-3.3000 Y1.2000  
G82 X-3.3000 Y1.1000  
G82 X-3.3000 Y1.3000  
G82 X-3.3000 Y1.4000  
G82 X-3.3000 Y1.5000  
G82 X-3.3000 Y1.6000  
G82 X-3.3000 Y1.7000  
G82 X-3.3000 Y1.8000  
G82 X-3.4000 Y1.8000  
G82 X-3.4000 Y1.7000  
G82 X-3.4000 Y1.6000  
G82 X-3.4000 Y1.5000  
G82 X-3.4000 Y1.4000  
G82 X-3.4000 Y1.3000  
G82 X-2.9500 Y1.3500  
G82 X-1.6000 Y1.8500  
M05
G00 Z3.0000  
G00 X0.0000  Y0.0000  
M06 T05  ; 0.0472  
G01 Z0.0000  F20    
M06 
G00 Z0.0500  
M03
G04 P0.000000
G82 X-0.1531 Y0.1000  Z-0.0730 F20    R0.0500  P0.010000
G82 X-0.3500 Y0.1000  
G82 X-0.5469 Y0.1000  
G82 X-0.8031 Y0.1000  
G82 X-1.0000 Y0.1000  
G82 X-1.1969 Y0.1000  
G82 X-1.4531 Y0.1000  
G82 X-1.6500 Y0.1000  
G82 X-1.8469 Y0.1000  
G82 X-2.1031 Y0.1000  
G82 X-2.3000 Y0.1000  
G82 X-2.4969 Y0.1000  
G82 X-2.7531 Y0.1000  
G82 X-2.9500 Y0.1000  
G82 X-3.1469 Y0.1000  
G82 X-3.4031 Y0.1000  
G82 X-3.6000 Y0.1000  
G82 X-3.7969 Y0.1000  
T01 
G00 Z1.0000  
M05
M02
