( Made using CamBam - http://www.cambam.co.uk )
( efm_vcf6c_panel 10/11/2015 8:13:19 PM )
( T3 : 3.175 )
G21 G90 G64 G40
G0 Z3.0
( T3 : 3.175 )
T3 M6
( mounting )
G17
M3 S1000
G0 X35.5296 Y125.0548
G0 Z3.0
G0 X35.5421 Y125.0548
G0 Z0.5
G1 F1000.0 Z0.0
G2 F2000.0 X35.5234 Y125.044 Z-0.0333 I-0.0125 J0.0
G2 Y125.0656 Z-0.0667 I0.0062 J0.0108
G2 X35.5421 Y125.0548 Z-0.1 I0.0063 J-0.0108
G2 X35.5234 Y125.044 Z-0.1333 I-0.0125 J0.0
G2 Y125.0656 Z-0.1667 I0.0062 J0.0108
G2 X35.5421 Y125.0548 Z-0.2 I0.0063 J-0.0108
G2 X35.5234 Y125.044 Z-0.2333 I-0.0125 J0.0
G2 Y125.0656 Z-0.2667 I0.0062 J0.0108
G2 X35.5421 Y125.0548 Z-0.3 I0.0063 J-0.0108
G2 X35.5234 Y125.044 Z-0.3333 I-0.0125 J0.0
G2 Y125.0656 Z-0.3667 I0.0062 J0.0108
G2 X35.5421 Y125.0548 Z-0.4 I0.0063 J-0.0108
G2 X35.5234 Y125.044 Z-0.4333 I-0.0125 J0.0
G2 Y125.0656 Z-0.4667 I0.0062 J0.0108
G2 X35.5421 Y125.0548 Z-0.5 I0.0063 J-0.0108
G2 X35.5234 Y125.044 Z-0.5333 I-0.0125 J0.0
G2 Y125.0656 Z-0.5667 I0.0062 J0.0108
G2 X35.5421 Y125.0548 Z-0.6 I0.0063 J-0.0108
G2 X35.5234 Y125.044 Z-0.6333 I-0.0125 J0.0
G2 Y125.0656 Z-0.6667 I0.0062 J0.0108
G2 X35.5421 Y125.0548 Z-0.7 I0.0063 J-0.0108
G2 X35.5234 Y125.044 Z-0.7333 I-0.0125 J0.0
G2 Y125.0656 Z-0.7667 I0.0062 J0.0108
G2 X35.5421 Y125.0548 Z-0.8 I0.0063 J-0.0108
G2 X35.5234 Y125.044 Z-0.8333 I-0.0125 J0.0
G2 Y125.0656 Z-0.8667 I0.0062 J0.0108
G2 X35.5421 Y125.0548 Z-0.9 I0.0063 J-0.0108
G2 X35.5234 Y125.044 Z-0.9333 I-0.0125 J0.0
G2 Y125.0656 Z-0.9667 I0.0062 J0.0108
G2 X35.5421 Y125.0548 Z-1.0 I0.0063 J-0.0108
G2 X35.5234 Y125.044 Z-1.0333 I-0.0125 J0.0
G2 Y125.0656 Z-1.0667 I0.0062 J0.0108
G2 X35.5421 Y125.0548 Z-1.1 I0.0063 J-0.0108
G2 X35.5234 Y125.044 Z-1.1333 I-0.0125 J0.0
G2 Y125.0656 Z-1.1667 I0.0062 J0.0108
G2 X35.5421 Y125.0548 Z-1.2 I0.0063 J-0.0108
G2 X35.5234 Y125.044 Z-1.2333 I-0.0125 J0.0
G2 Y125.0656 Z-1.2667 I0.0062 J0.0108
G2 X35.5421 Y125.0548 Z-1.3 I0.0063 J-0.0108
G2 X35.5234 Y125.044 Z-1.3333 I-0.0125 J0.0
G2 Y125.0656 Z-1.3667 I0.0062 J0.0108
G2 X35.5421 Y125.0548 Z-1.4 I0.0063 J-0.0108
G2 X35.5234 Y125.044 Z-1.4333 I-0.0125 J0.0
G2 Y125.0656 Z-1.4667 I0.0062 J0.0108
G2 X35.5421 Y125.0548 Z-1.5 I0.0063 J-0.0108
G2 X35.5234 Y125.044 Z-1.5333 I-0.0125 J0.0
G2 Y125.0656 Z-1.5667 I0.0062 J0.0108
G2 X35.5421 Y125.0548 Z-1.6 I0.0063 J-0.0108
G2 X35.5234 Y125.044 Z-1.6333 I-0.0125 J0.0
G2 Y125.0656 Z-1.6667 I0.0062 J0.0108
G2 X35.5421 Y125.0548 Z-1.7 I0.0063 J-0.0108
G2 X35.5234 Y125.044 Z-1.7333 I-0.0125 J0.0
G2 Y125.0656 Z-1.7667 I0.0062 J0.0108
G2 X35.5421 Y125.0548 Z-1.8 I0.0063 J-0.0108
G2 X35.5234 Y125.044 Z-1.8333 I-0.0125 J0.0
G2 Y125.0656 Z-1.8667 I0.0062 J0.0108
G2 X35.5421 Y125.0548 Z-1.9 I0.0063 J-0.0108
G2 X35.5234 Y125.044 Z-1.9333 I-0.0125 J0.0
G2 Y125.0656 Z-1.9667 I0.0062 J0.0108
G2 X35.5421 Y125.0548 Z-2.0 I0.0063 J-0.0108
G2 X35.5234 Y125.044 Z-2.0333 I-0.0125 J0.0
G2 Y125.0656 Z-2.0667 I0.0062 J0.0108
G2 X35.5421 Y125.0548 Z-2.1 I0.0063 J-0.0108
G2 X35.5234 Y125.044 Z-2.1333 I-0.0125 J0.0
G2 Y125.0656 Z-2.1667 I0.0062 J0.0108
G2 X35.5421 Y125.0548 Z-2.2 I0.0063 J-0.0108
G2 X35.5234 Y125.044 Z-2.2333 I-0.0125 J0.0
G2 Y125.0656 Z-2.2667 I0.0062 J0.0108
G2 X35.5421 Y125.0548 Z-2.3 I0.0063 J-0.0108
G2 X35.5234 Y125.044 Z-2.3333 I-0.0125 J0.0
G2 Y125.0656 Z-2.3667 I0.0062 J0.0108
G2 X35.5421 Y125.0548 Z-2.4 I0.0063 J-0.0108
G2 X35.5234 Y125.044 Z-2.4333 I-0.0125 J0.0
G2 Y125.0656 Z-2.4667 I0.0062 J0.0108
G2 X35.5421 Y125.0548 Z-2.5 I0.0063 J-0.0108
G2 X35.5234 Y125.044 Z-2.5333 I-0.0125 J0.0
G2 Y125.0656 Z-2.5667 I0.0062 J0.0108
G2 X35.5421 Y125.0548 Z-2.6 I0.0063 J-0.0108
G2 X35.5234 Y125.044 Z-2.6333 I-0.0125 J0.0
G2 Y125.0656 Z-2.6667 I0.0062 J0.0108
G2 X35.5421 Y125.0548 Z-2.7 I0.0063 J-0.0108
G2 X35.5234 Y125.044 Z-2.7333 I-0.0125 J0.0
G2 Y125.0656 Z-2.7667 I0.0062 J0.0108
G2 X35.5421 Y125.0548 Z-2.8 I0.0063 J-0.0108
G2 X35.5234 Y125.044 Z-2.8333 I-0.0125 J0.0
G2 Y125.0656 Z-2.8667 I0.0062 J0.0108
G2 X35.5421 Y125.0548 Z-2.9 I0.0063 J-0.0108
G2 X35.5234 Y125.044 Z-2.9333 I-0.0125 J0.0
G2 Y125.0656 Z-2.9667 I0.0063 J0.0108
G2 X35.5421 Y125.0548 Z-3.0 I0.0063 J-0.0108
G2 X35.5234 Y125.044 Z-3.0333 I-0.0125 J0.0
G2 Y125.0656 Z-3.0667 I0.0063 J0.0108
G2 X35.5421 Y125.0548 Z-3.1 I0.0063 J-0.0108
G2 X35.5234 Y125.044 Z-3.1333 I-0.0125 J0.0
G2 Y125.0656 Z-3.1667 I0.0063 J0.0108
G2 X35.5421 Y125.0548 Z-3.2 I0.0063 J-0.0108
G2 X35.5234 Y125.044 I-0.0125 J0.0
G2 Y125.0656 I0.0063 J0.0108
G2 X35.5421 Y125.0548 I0.0062 J-0.0108
G0 Z3.0
G0 X39.7164 Y104.1099
G0 Z0.5
G1 F1000.0 Z0.0
G2 F2000.0 X39.6977 Y104.099 Z-0.0333 I-0.0125 J0.0
G2 Y104.1207 Z-0.0667 I0.0062 J0.0108
G2 X39.7164 Y104.1099 Z-0.1 I0.0063 J-0.0108
G2 X39.6977 Y104.099 Z-0.1333 I-0.0125 J0.0
G2 Y104.1207 Z-0.1667 I0.0062 J0.0108
G2 X39.7164 Y104.1099 Z-0.2 I0.0063 J-0.0108
G2 X39.6977 Y104.099 Z-0.2333 I-0.0125 J0.0
G2 Y104.1207 Z-0.2667 I0.0062 J0.0108
G2 X39.7164 Y104.1099 Z-0.3 I0.0063 J-0.0108
G2 X39.6977 Y104.099 Z-0.3333 I-0.0125 J0.0
G2 Y104.1207 Z-0.3667 I0.0062 J0.0108
G2 X39.7164 Y104.1099 Z-0.4 I0.0063 J-0.0108
G2 X39.6977 Y104.099 Z-0.4333 I-0.0125 J0.0
G2 Y104.1207 Z-0.4667 I0.0062 J0.0108
G2 X39.7164 Y104.1099 Z-0.5 I0.0063 J-0.0108
G2 X39.6977 Y104.099 Z-0.5333 I-0.0125 J0.0
G2 Y104.1207 Z-0.5667 I0.0062 J0.0108
G2 X39.7164 Y104.1099 Z-0.6 I0.0063 J-0.0108
G2 X39.6977 Y104.099 Z-0.6333 I-0.0125 J0.0
G2 Y104.1207 Z-0.6667 I0.0062 J0.0108
G2 X39.7164 Y104.1099 Z-0.7 I0.0063 J-0.0108
G2 X39.6977 Y104.099 Z-0.7333 I-0.0125 J0.0
G2 Y104.1207 Z-0.7667 I0.0062 J0.0108
G2 X39.7164 Y104.1099 Z-0.8 I0.0063 J-0.0108
G2 X39.6977 Y104.099 Z-0.8333 I-0.0125 J0.0
G2 Y104.1207 Z-0.8667 I0.0062 J0.0108
G2 X39.7164 Y104.1099 Z-0.9 I0.0063 J-0.0108
G2 X39.6977 Y104.099 Z-0.9333 I-0.0125 J0.0
G2 Y104.1207 Z-0.9667 I0.0062 J0.0108
G2 X39.7164 Y104.1099 Z-1.0 I0.0063 J-0.0108
G2 X39.6977 Y104.099 Z-1.0333 I-0.0125 J0.0
G2 Y104.1207 Z-1.0667 I0.0062 J0.0108
G2 X39.7164 Y104.1099 Z-1.1 I0.0063 J-0.0108
G2 X39.6977 Y104.099 Z-1.1333 I-0.0125 J0.0
G2 Y104.1207 Z-1.1667 I0.0062 J0.0108
G2 X39.7164 Y104.1099 Z-1.2 I0.0063 J-0.0108
G2 X39.6977 Y104.099 Z-1.2333 I-0.0125 J0.0
G2 Y104.1207 Z-1.2667 I0.0062 J0.0108
G2 X39.7164 Y104.1099 Z-1.3 I0.0063 J-0.0108
G2 X39.6977 Y104.099 Z-1.3333 I-0.0125 J0.0
G2 Y104.1207 Z-1.3667 I0.0062 J0.0108
G2 X39.7164 Y104.1099 Z-1.4 I0.0063 J-0.0108
G2 X39.6977 Y104.099 Z-1.4333 I-0.0125 J0.0
G2 Y104.1207 Z-1.4667 I0.0062 J0.0108
G2 X39.7164 Y104.1099 Z-1.5 I0.0063 J-0.0108
G2 X39.6977 Y104.099 Z-1.5333 I-0.0125 J0.0
G2 Y104.1207 Z-1.5667 I0.0062 J0.0108
G2 X39.7164 Y104.1099 Z-1.6 I0.0063 J-0.0108
G2 X39.6977 Y104.099 Z-1.6333 I-0.0125 J0.0
G2 Y104.1207 Z-1.6667 I0.0062 J0.0108
G2 X39.7164 Y104.1099 Z-1.7 I0.0063 J-0.0108
G2 X39.6977 Y104.099 Z-1.7333 I-0.0125 J0.0
G2 Y104.1207 Z-1.7667 I0.0062 J0.0108
G2 X39.7164 Y104.1099 Z-1.8 I0.0063 J-0.0108
G2 X39.6977 Y104.099 Z-1.8333 I-0.0125 J0.0
G2 Y104.1207 Z-1.8667 I0.0062 J0.0108
G2 X39.7164 Y104.1099 Z-1.9 I0.0063 J-0.0108
G2 X39.6977 Y104.099 Z-1.9333 I-0.0125 J0.0
G2 Y104.1207 Z-1.9667 I0.0062 J0.0108
G2 X39.7164 Y104.1099 Z-2.0 I0.0063 J-0.0108
G2 X39.6977 Y104.099 Z-2.0333 I-0.0125 J0.0
G2 Y104.1207 Z-2.0667 I0.0062 J0.0108
G2 X39.7164 Y104.1099 Z-2.1 I0.0063 J-0.0108
G2 X39.6977 Y104.099 Z-2.1333 I-0.0125 J0.0
G2 Y104.1207 Z-2.1667 I0.0062 J0.0108
G2 X39.7164 Y104.1099 Z-2.2 I0.0063 J-0.0108
G2 X39.6977 Y104.099 Z-2.2333 I-0.0125 J0.0
G2 Y104.1207 Z-2.2667 I0.0062 J0.0108
G2 X39.7164 Y104.1099 Z-2.3 I0.0063 J-0.0108
G2 X39.6977 Y104.099 Z-2.3333 I-0.0125 J0.0
G2 Y104.1207 Z-2.3667 I0.0062 J0.0108
G2 X39.7164 Y104.1099 Z-2.4 I0.0063 J-0.0108
G2 X39.6977 Y104.099 Z-2.4333 I-0.0125 J0.0
G2 Y104.1207 Z-2.4667 I0.0062 J0.0108
G2 X39.7164 Y104.1099 Z-2.5 I0.0063 J-0.0108
G2 X39.6977 Y104.099 Z-2.5333 I-0.0125 J0.0
G2 Y104.1207 Z-2.5667 I0.0062 J0.0108
G2 X39.7164 Y104.1099 Z-2.6 I0.0063 J-0.0108
G2 X39.6977 Y104.099 Z-2.6333 I-0.0125 J0.0
G2 Y104.1207 Z-2.6667 I0.0062 J0.0108
G2 X39.7164 Y104.1099 Z-2.7 I0.0063 J-0.0108
G2 X39.6977 Y104.099 Z-2.7333 I-0.0125 J0.0
G2 Y104.1207 Z-2.7667 I0.0062 J0.0108
G2 X39.7164 Y104.1099 Z-2.8 I0.0063 J-0.0108
G2 X39.6977 Y104.099 Z-2.8333 I-0.0125 J0.0
G2 Y104.1207 Z-2.8667 I0.0062 J0.0108
G2 X39.7164 Y104.1099 Z-2.9 I0.0063 J-0.0108
G2 X39.6977 Y104.099 Z-2.9333 I-0.0125 J0.0
G2 Y104.1207 Z-2.9667 I0.0063 J0.0108
G2 X39.7164 Y104.1099 Z-3.0 I0.0063 J-0.0108
G2 X39.6977 Y104.099 Z-3.0333 I-0.0125 J0.0
G2 Y104.1207 Z-3.0667 I0.0063 J0.0108
G2 X39.7164 Y104.1099 Z-3.1 I0.0063 J-0.0108
G2 X39.6977 Y104.099 Z-3.1333 I-0.0125 J0.0
G2 Y104.1207 Z-3.1667 I0.0063 J0.0108
G2 X39.7164 Y104.1099 Z-3.2 I0.0063 J-0.0108
G2 X39.6977 Y104.099 I-0.0125 J0.0
G2 Y104.1207 I0.0063 J0.0108
G2 X39.7164 Y104.1099 I0.0062 J-0.0108
G0 Z3.0
G0 X39.7161 Y91.7036
G0 Z0.5
G1 F1000.0 Z0.0
G2 F2000.0 X39.6974 Y91.6927 Z-0.0333 I-0.0125 J0.0
G2 Y91.7144 Z-0.0667 I0.0062 J0.0108
G2 X39.7161 Y91.7036 Z-0.1 I0.0063 J-0.0108
G2 X39.6974 Y91.6927 Z-0.1333 I-0.0125 J0.0
G2 Y91.7144 Z-0.1667 I0.0062 J0.0108
G2 X39.7161 Y91.7036 Z-0.2 I0.0063 J-0.0108
G2 X39.6974 Y91.6927 Z-0.2333 I-0.0125 J0.0
G2 Y91.7144 Z-0.2667 I0.0062 J0.0108
G2 X39.7161 Y91.7036 Z-0.3 I0.0063 J-0.0108
G2 X39.6974 Y91.6927 Z-0.3333 I-0.0125 J0.0
G2 Y91.7144 Z-0.3667 I0.0062 J0.0108
G2 X39.7161 Y91.7036 Z-0.4 I0.0063 J-0.0108
G2 X39.6974 Y91.6927 Z-0.4333 I-0.0125 J0.0
G2 Y91.7144 Z-0.4667 I0.0062 J0.0108
G2 X39.7161 Y91.7036 Z-0.5 I0.0063 J-0.0108
G2 X39.6974 Y91.6927 Z-0.5333 I-0.0125 J0.0
G2 Y91.7144 Z-0.5667 I0.0062 J0.0108
G2 X39.7161 Y91.7036 Z-0.6 I0.0063 J-0.0108
G2 X39.6974 Y91.6927 Z-0.6333 I-0.0125 J0.0
G2 Y91.7144 Z-0.6667 I0.0062 J0.0108
G2 X39.7161 Y91.7036 Z-0.7 I0.0063 J-0.0108
G2 X39.6974 Y91.6927 Z-0.7333 I-0.0125 J0.0
G2 Y91.7144 Z-0.7667 I0.0062 J0.0108
G2 X39.7161 Y91.7036 Z-0.8 I0.0063 J-0.0108
G2 X39.6974 Y91.6927 Z-0.8333 I-0.0125 J0.0
G2 Y91.7144 Z-0.8667 I0.0062 J0.0108
G2 X39.7161 Y91.7036 Z-0.9 I0.0063 J-0.0108
G2 X39.6974 Y91.6927 Z-0.9333 I-0.0125 J0.0
G2 Y91.7144 Z-0.9667 I0.0062 J0.0108
G2 X39.7161 Y91.7036 Z-1.0 I0.0063 J-0.0108
G2 X39.6974 Y91.6927 Z-1.0333 I-0.0125 J0.0
G2 Y91.7144 Z-1.0667 I0.0062 J0.0108
G2 X39.7161 Y91.7036 Z-1.1 I0.0063 J-0.0108
G2 X39.6974 Y91.6927 Z-1.1333 I-0.0125 J0.0
G2 Y91.7144 Z-1.1667 I0.0062 J0.0108
G2 X39.7161 Y91.7036 Z-1.2 I0.0063 J-0.0108
G2 X39.6974 Y91.6927 Z-1.2333 I-0.0125 J0.0
G2 Y91.7144 Z-1.2667 I0.0062 J0.0108
G2 X39.7161 Y91.7036 Z-1.3 I0.0063 J-0.0108
G2 X39.6974 Y91.6927 Z-1.3333 I-0.0125 J0.0
G2 Y91.7144 Z-1.3667 I0.0062 J0.0108
G2 X39.7161 Y91.7036 Z-1.4 I0.0063 J-0.0108
G2 X39.6974 Y91.6927 Z-1.4333 I-0.0125 J0.0
G2 Y91.7144 Z-1.4667 I0.0062 J0.0108
G2 X39.7161 Y91.7036 Z-1.5 I0.0063 J-0.0108
G2 X39.6974 Y91.6927 Z-1.5333 I-0.0125 J0.0
G2 Y91.7144 Z-1.5667 I0.0062 J0.0108
G2 X39.7161 Y91.7036 Z-1.6 I0.0063 J-0.0108
G2 X39.6974 Y91.6927 Z-1.6333 I-0.0125 J0.0
G2 Y91.7144 Z-1.6667 I0.0062 J0.0108
G2 X39.7161 Y91.7036 Z-1.7 I0.0063 J-0.0108
G2 X39.6974 Y91.6927 Z-1.7333 I-0.0125 J0.0
G2 Y91.7144 Z-1.7667 I0.0062 J0.0108
G2 X39.7161 Y91.7036 Z-1.8 I0.0063 J-0.0108
G2 X39.6974 Y91.6927 Z-1.8333 I-0.0125 J0.0
G2 Y91.7144 Z-1.8667 I0.0062 J0.0108
G2 X39.7161 Y91.7036 Z-1.9 I0.0063 J-0.0108
G2 X39.6974 Y91.6927 Z-1.9333 I-0.0125 J0.0
G2 Y91.7144 Z-1.9667 I0.0062 J0.0108
G2 X39.7161 Y91.7036 Z-2.0 I0.0063 J-0.0108
G2 X39.6974 Y91.6927 Z-2.0333 I-0.0125 J0.0
G2 Y91.7144 Z-2.0667 I0.0062 J0.0108
G2 X39.7161 Y91.7036 Z-2.1 I0.0063 J-0.0108
G2 X39.6974 Y91.6927 Z-2.1333 I-0.0125 J0.0
G2 Y91.7144 Z-2.1667 I0.0062 J0.0108
G2 X39.7161 Y91.7036 Z-2.2 I0.0063 J-0.0108
G2 X39.6974 Y91.6927 Z-2.2333 I-0.0125 J0.0
G2 Y91.7144 Z-2.2667 I0.0062 J0.0108
G2 X39.7161 Y91.7036 Z-2.3 I0.0063 J-0.0108
G2 X39.6974 Y91.6927 Z-2.3333 I-0.0125 J0.0
G2 Y91.7144 Z-2.3667 I0.0062 J0.0108
G2 X39.7161 Y91.7036 Z-2.4 I0.0063 J-0.0108
G2 X39.6974 Y91.6927 Z-2.4333 I-0.0125 J0.0
G2 Y91.7144 Z-2.4667 I0.0062 J0.0108
G2 X39.7161 Y91.7036 Z-2.5 I0.0063 J-0.0108
G2 X39.6974 Y91.6927 Z-2.5333 I-0.0125 J0.0
G2 Y91.7144 Z-2.5667 I0.0062 J0.0108
G2 X39.7161 Y91.7036 Z-2.6 I0.0063 J-0.0108
G2 X39.6974 Y91.6927 Z-2.6333 I-0.0125 J0.0
G2 Y91.7144 Z-2.6667 I0.0062 J0.0108
G2 X39.7161 Y91.7036 Z-2.7 I0.0063 J-0.0108
G2 X39.6974 Y91.6927 Z-2.7333 I-0.0125 J0.0
G2 Y91.7144 Z-2.7667 I0.0062 J0.0108
G2 X39.7161 Y91.7036 Z-2.8 I0.0063 J-0.0108
G2 X39.6974 Y91.6927 Z-2.8333 I-0.0125 J0.0
G2 Y91.7144 Z-2.8667 I0.0062 J0.0108
G2 X39.7161 Y91.7036 Z-2.9 I0.0063 J-0.0108
G2 X39.6974 Y91.6927 Z-2.9333 I-0.0125 J0.0
G2 Y91.7144 Z-2.9667 I0.0063 J0.0108
G2 X39.7161 Y91.7036 Z-3.0 I0.0063 J-0.0108
G2 X39.6974 Y91.6927 Z-3.0333 I-0.0125 J0.0
G2 Y91.7144 Z-3.0667 I0.0063 J0.0108
G2 X39.7161 Y91.7036 Z-3.1 I0.0063 J-0.0108
G2 X39.6974 Y91.6927 Z-3.1333 I-0.0125 J0.0
G2 Y91.7144 Z-3.1667 I0.0063 J0.0108
G2 X39.7161 Y91.7036 Z-3.2 I0.0063 J-0.0108
G2 X39.6974 Y91.6927 I-0.0125 J0.0
G2 Y91.7144 I0.0063 J0.0108
G2 X39.7161 Y91.7036 I0.0062 J-0.0108
G0 Z3.0
G0 X39.7469 Y79.282
G0 Z0.5
G1 F1000.0 Z0.0
G2 F2000.0 X39.7281 Y79.2712 Z-0.0333 I-0.0125 J0.0
G2 Y79.2928 Z-0.0667 I0.0062 J0.0108
G2 X39.7469 Y79.282 Z-0.1 I0.0063 J-0.0108
G2 X39.7281 Y79.2712 Z-0.1333 I-0.0125 J0.0
G2 Y79.2928 Z-0.1667 I0.0062 J0.0108
G2 X39.7469 Y79.282 Z-0.2 I0.0063 J-0.0108
G2 X39.7281 Y79.2712 Z-0.2333 I-0.0125 J0.0
G2 Y79.2928 Z-0.2667 I0.0062 J0.0108
G2 X39.7469 Y79.282 Z-0.3 I0.0063 J-0.0108
G2 X39.7281 Y79.2712 Z-0.3333 I-0.0125 J0.0
G2 Y79.2928 Z-0.3667 I0.0062 J0.0108
G2 X39.7469 Y79.282 Z-0.4 I0.0063 J-0.0108
G2 X39.7281 Y79.2712 Z-0.4333 I-0.0125 J0.0
G2 Y79.2928 Z-0.4667 I0.0062 J0.0108
G2 X39.7469 Y79.282 Z-0.5 I0.0063 J-0.0108
G2 X39.7281 Y79.2712 Z-0.5333 I-0.0125 J0.0
G2 Y79.2928 Z-0.5667 I0.0062 J0.0108
G2 X39.7469 Y79.282 Z-0.6 I0.0063 J-0.0108
G2 X39.7281 Y79.2712 Z-0.6333 I-0.0125 J0.0
G2 Y79.2928 Z-0.6667 I0.0062 J0.0108
G2 X39.7469 Y79.282 Z-0.7 I0.0063 J-0.0108
G2 X39.7281 Y79.2712 Z-0.7333 I-0.0125 J0.0
G2 Y79.2928 Z-0.7667 I0.0062 J0.0108
G2 X39.7469 Y79.282 Z-0.8 I0.0063 J-0.0108
G2 X39.7281 Y79.2712 Z-0.8333 I-0.0125 J0.0
G2 Y79.2928 Z-0.8667 I0.0062 J0.0108
G2 X39.7469 Y79.282 Z-0.9 I0.0063 J-0.0108
G2 X39.7281 Y79.2712 Z-0.9333 I-0.0125 J0.0
G2 Y79.2928 Z-0.9667 I0.0062 J0.0108
G2 X39.7469 Y79.282 Z-1.0 I0.0063 J-0.0108
G2 X39.7281 Y79.2712 Z-1.0333 I-0.0125 J0.0
G2 Y79.2928 Z-1.0667 I0.0062 J0.0108
G2 X39.7469 Y79.282 Z-1.1 I0.0063 J-0.0108
G2 X39.7281 Y79.2712 Z-1.1333 I-0.0125 J0.0
G2 Y79.2928 Z-1.1667 I0.0062 J0.0108
G2 X39.7469 Y79.282 Z-1.2 I0.0063 J-0.0108
G2 X39.7281 Y79.2712 Z-1.2333 I-0.0125 J0.0
G2 Y79.2928 Z-1.2667 I0.0062 J0.0108
G2 X39.7469 Y79.282 Z-1.3 I0.0063 J-0.0108
G2 X39.7281 Y79.2712 Z-1.3333 I-0.0125 J0.0
G2 Y79.2928 Z-1.3667 I0.0062 J0.0108
G2 X39.7469 Y79.282 Z-1.4 I0.0063 J-0.0108
G2 X39.7281 Y79.2712 Z-1.4333 I-0.0125 J0.0
G2 Y79.2928 Z-1.4667 I0.0062 J0.0108
G2 X39.7469 Y79.282 Z-1.5 I0.0063 J-0.0108
G2 X39.7281 Y79.2712 Z-1.5333 I-0.0125 J0.0
G2 Y79.2928 Z-1.5667 I0.0062 J0.0108
G2 X39.7469 Y79.282 Z-1.6 I0.0063 J-0.0108
G2 X39.7281 Y79.2712 Z-1.6333 I-0.0125 J0.0
G2 Y79.2928 Z-1.6667 I0.0062 J0.0108
G2 X39.7469 Y79.282 Z-1.7 I0.0063 J-0.0108
G2 X39.7281 Y79.2712 Z-1.7333 I-0.0125 J0.0
G2 Y79.2928 Z-1.7667 I0.0062 J0.0108
G2 X39.7469 Y79.282 Z-1.8 I0.0063 J-0.0108
G2 X39.7281 Y79.2712 Z-1.8333 I-0.0125 J0.0
G2 Y79.2928 Z-1.8667 I0.0062 J0.0108
G2 X39.7469 Y79.282 Z-1.9 I0.0063 J-0.0108
G2 X39.7281 Y79.2712 Z-1.9333 I-0.0125 J0.0
G2 Y79.2928 Z-1.9667 I0.0062 J0.0108
G2 X39.7469 Y79.282 Z-2.0 I0.0063 J-0.0108
G2 X39.7281 Y79.2712 Z-2.0333 I-0.0125 J0.0
G2 Y79.2928 Z-2.0667 I0.0062 J0.0108
G2 X39.7469 Y79.282 Z-2.1 I0.0063 J-0.0108
G2 X39.7281 Y79.2712 Z-2.1333 I-0.0125 J0.0
G2 Y79.2928 Z-2.1667 I0.0062 J0.0108
G2 X39.7469 Y79.282 Z-2.2 I0.0063 J-0.0108
G2 X39.7281 Y79.2712 Z-2.2333 I-0.0125 J0.0
G2 Y79.2928 Z-2.2667 I0.0062 J0.0108
G2 X39.7469 Y79.282 Z-2.3 I0.0063 J-0.0108
G2 X39.7281 Y79.2712 Z-2.3333 I-0.0125 J0.0
G2 Y79.2928 Z-2.3667 I0.0062 J0.0108
G2 X39.7469 Y79.282 Z-2.4 I0.0063 J-0.0108
G2 X39.7281 Y79.2712 Z-2.4333 I-0.0125 J0.0
G2 Y79.2928 Z-2.4667 I0.0062 J0.0108
G2 X39.7469 Y79.282 Z-2.5 I0.0063 J-0.0108
G2 X39.7281 Y79.2712 Z-2.5333 I-0.0125 J0.0
G2 Y79.2928 Z-2.5667 I0.0062 J0.0108
G2 X39.7469 Y79.282 Z-2.6 I0.0063 J-0.0108
G2 X39.7281 Y79.2712 Z-2.6333 I-0.0125 J0.0
G2 Y79.2928 Z-2.6667 I0.0062 J0.0108
G2 X39.7469 Y79.282 Z-2.7 I0.0063 J-0.0108
G2 X39.7281 Y79.2712 Z-2.7333 I-0.0125 J0.0
G2 Y79.2928 Z-2.7667 I0.0062 J0.0108
G2 X39.7469 Y79.282 Z-2.8 I0.0063 J-0.0108
G2 X39.7281 Y79.2712 Z-2.8333 I-0.0125 J0.0
G2 Y79.2928 Z-2.8667 I0.0062 J0.0108
G2 X39.7469 Y79.282 Z-2.9 I0.0063 J-0.0108
G2 X39.7281 Y79.2712 Z-2.9333 I-0.0125 J0.0
G2 Y79.2928 Z-2.9667 I0.0063 J0.0108
G2 X39.7469 Y79.282 Z-3.0 I0.0063 J-0.0108
G2 X39.7281 Y79.2712 Z-3.0333 I-0.0125 J0.0
G2 Y79.2928 Z-3.0667 I0.0063 J0.0108
G2 X39.7469 Y79.282 Z-3.1 I0.0063 J-0.0108
G2 X39.7281 Y79.2712 Z-3.1333 I-0.0125 J0.0
G2 Y79.2928 Z-3.1667 I0.0063 J0.0108
G2 X39.7469 Y79.282 Z-3.2 I0.0063 J-0.0108
G2 X39.7281 Y79.2712 I-0.0125 J0.0
G2 Y79.2928 I0.0063 J0.0108
G2 X39.7469 Y79.282 I0.0062 J-0.0108
G0 Z3.0
G0 Y66.3196
G0 Z0.5
G1 F1000.0 Z0.0
G2 F2000.0 X39.7281 Y66.3088 Z-0.0333 I-0.0125 J0.0
G2 Y66.3305 Z-0.0667 I0.0062 J0.0108
G2 X39.7469 Y66.3196 Z-0.1 I0.0063 J-0.0108
G2 X39.7281 Y66.3088 Z-0.1333 I-0.0125 J0.0
G2 Y66.3305 Z-0.1667 I0.0062 J0.0108
G2 X39.7469 Y66.3196 Z-0.2 I0.0063 J-0.0108
G2 X39.7281 Y66.3088 Z-0.2333 I-0.0125 J0.0
G2 Y66.3305 Z-0.2667 I0.0062 J0.0108
G2 X39.7469 Y66.3196 Z-0.3 I0.0063 J-0.0108
G2 X39.7281 Y66.3088 Z-0.3333 I-0.0125 J0.0
G2 Y66.3305 Z-0.3667 I0.0062 J0.0108
G2 X39.7469 Y66.3196 Z-0.4 I0.0063 J-0.0108
G2 X39.7281 Y66.3088 Z-0.4333 I-0.0125 J0.0
G2 Y66.3305 Z-0.4667 I0.0062 J0.0108
G2 X39.7469 Y66.3196 Z-0.5 I0.0063 J-0.0108
G2 X39.7281 Y66.3088 Z-0.5333 I-0.0125 J0.0
G2 Y66.3305 Z-0.5667 I0.0062 J0.0108
G2 X39.7469 Y66.3196 Z-0.6 I0.0063 J-0.0108
G2 X39.7281 Y66.3088 Z-0.6333 I-0.0125 J0.0
G2 Y66.3305 Z-0.6667 I0.0062 J0.0108
G2 X39.7469 Y66.3196 Z-0.7 I0.0063 J-0.0108
G2 X39.7281 Y66.3088 Z-0.7333 I-0.0125 J0.0
G2 Y66.3305 Z-0.7667 I0.0062 J0.0108
G2 X39.7469 Y66.3196 Z-0.8 I0.0063 J-0.0108
G2 X39.7281 Y66.3088 Z-0.8333 I-0.0125 J0.0
G2 Y66.3305 Z-0.8667 I0.0062 J0.0108
G2 X39.7469 Y66.3196 Z-0.9 I0.0063 J-0.0108
G2 X39.7281 Y66.3088 Z-0.9333 I-0.0125 J0.0
G2 Y66.3305 Z-0.9667 I0.0062 J0.0108
G2 X39.7469 Y66.3196 Z-1.0 I0.0063 J-0.0108
G2 X39.7281 Y66.3088 Z-1.0333 I-0.0125 J0.0
G2 Y66.3305 Z-1.0667 I0.0062 J0.0108
G2 X39.7469 Y66.3196 Z-1.1 I0.0063 J-0.0108
G2 X39.7281 Y66.3088 Z-1.1333 I-0.0125 J0.0
G2 Y66.3305 Z-1.1667 I0.0062 J0.0108
G2 X39.7469 Y66.3196 Z-1.2 I0.0063 J-0.0108
G2 X39.7281 Y66.3088 Z-1.2333 I-0.0125 J0.0
G2 Y66.3305 Z-1.2667 I0.0062 J0.0108
G2 X39.7469 Y66.3196 Z-1.3 I0.0063 J-0.0108
G2 X39.7281 Y66.3088 Z-1.3333 I-0.0125 J0.0
G2 Y66.3305 Z-1.3667 I0.0062 J0.0108
G2 X39.7469 Y66.3196 Z-1.4 I0.0063 J-0.0108
G2 X39.7281 Y66.3088 Z-1.4333 I-0.0125 J0.0
G2 Y66.3305 Z-1.4667 I0.0062 J0.0108
G2 X39.7469 Y66.3196 Z-1.5 I0.0063 J-0.0108
G2 X39.7281 Y66.3088 Z-1.5333 I-0.0125 J0.0
G2 Y66.3305 Z-1.5667 I0.0062 J0.0108
G2 X39.7469 Y66.3196 Z-1.6 I0.0063 J-0.0108
G2 X39.7281 Y66.3088 Z-1.6333 I-0.0125 J0.0
G2 Y66.3305 Z-1.6667 I0.0062 J0.0108
G2 X39.7469 Y66.3196 Z-1.7 I0.0063 J-0.0108
G2 X39.7281 Y66.3088 Z-1.7333 I-0.0125 J0.0
G2 Y66.3305 Z-1.7667 I0.0062 J0.0108
G2 X39.7469 Y66.3196 Z-1.8 I0.0063 J-0.0108
G2 X39.7281 Y66.3088 Z-1.8333 I-0.0125 J0.0
G2 Y66.3305 Z-1.8667 I0.0062 J0.0108
G2 X39.7469 Y66.3196 Z-1.9 I0.0063 J-0.0108
G2 X39.7281 Y66.3088 Z-1.9333 I-0.0125 J0.0
G2 Y66.3305 Z-1.9667 I0.0062 J0.0108
G2 X39.7469 Y66.3196 Z-2.0 I0.0063 J-0.0108
G2 X39.7281 Y66.3088 Z-2.0333 I-0.0125 J0.0
G2 Y66.3305 Z-2.0667 I0.0062 J0.0108
G2 X39.7469 Y66.3196 Z-2.1 I0.0063 J-0.0108
G2 X39.7281 Y66.3088 Z-2.1333 I-0.0125 J0.0
G2 Y66.3305 Z-2.1667 I0.0062 J0.0108
G2 X39.7469 Y66.3196 Z-2.2 I0.0063 J-0.0108
G2 X39.7281 Y66.3088 Z-2.2333 I-0.0125 J0.0
G2 Y66.3305 Z-2.2667 I0.0062 J0.0108
G2 X39.7469 Y66.3196 Z-2.3 I0.0063 J-0.0108
G2 X39.7281 Y66.3088 Z-2.3333 I-0.0125 J0.0
G2 Y66.3305 Z-2.3667 I0.0062 J0.0108
G2 X39.7469 Y66.3196 Z-2.4 I0.0063 J-0.0108
G2 X39.7281 Y66.3088 Z-2.4333 I-0.0125 J0.0
G2 Y66.3305 Z-2.4667 I0.0062 J0.0108
G2 X39.7469 Y66.3196 Z-2.5 I0.0063 J-0.0108
G2 X39.7281 Y66.3088 Z-2.5333 I-0.0125 J0.0
G2 Y66.3305 Z-2.5667 I0.0062 J0.0108
G2 X39.7469 Y66.3196 Z-2.6 I0.0063 J-0.0108
G2 X39.7281 Y66.3088 Z-2.6333 I-0.0125 J0.0
G2 Y66.3305 Z-2.6667 I0.0062 J0.0108
G2 X39.7469 Y66.3196 Z-2.7 I0.0063 J-0.0108
G2 X39.7281 Y66.3088 Z-2.7333 I-0.0125 J0.0
G2 Y66.3305 Z-2.7667 I0.0062 J0.0108
G2 X39.7469 Y66.3196 Z-2.8 I0.0063 J-0.0108
G2 X39.7281 Y66.3088 Z-2.8333 I-0.0125 J0.0
G2 Y66.3305 Z-2.8667 I0.0062 J0.0108
G2 X39.7469 Y66.3196 Z-2.9 I0.0063 J-0.0108
G2 X39.7281 Y66.3088 Z-2.9333 I-0.0125 J0.0
G2 Y66.3305 Z-2.9667 I0.0063 J0.0108
G2 X39.7469 Y66.3196 Z-3.0 I0.0063 J-0.0108
G2 X39.7281 Y66.3088 Z-3.0333 I-0.0125 J0.0
G2 Y66.3305 Z-3.0667 I0.0063 J0.0108
G2 X39.7469 Y66.3196 Z-3.1 I0.0063 J-0.0108
G2 X39.7281 Y66.3088 Z-3.1333 I-0.0125 J0.0
G2 Y66.3305 Z-3.1667 I0.0063 J0.0108
G2 X39.7469 Y66.3196 Z-3.2 I0.0063 J-0.0108
G2 X39.7281 Y66.3088 I-0.0125 J0.0
G2 Y66.3305 I0.0063 J0.0108
G2 X39.7469 Y66.3196 I0.0062 J-0.0108
G0 Z3.0
G0 X19.8984 Y71.1967
G0 Z0.5
G1 F1000.0 Z0.0
G2 F2000.0 X19.8797 Y71.1859 Z-0.0333 I-0.0125 J0.0
G2 Y71.2075 Z-0.0667 I0.0062 J0.0108
G2 X19.8984 Y71.1967 Z-0.1 I0.0063 J-0.0108
G2 X19.8797 Y71.1859 Z-0.1333 I-0.0125 J0.0
G2 Y71.2075 Z-0.1667 I0.0062 J0.0108
G2 X19.8984 Y71.1967 Z-0.2 I0.0063 J-0.0108
G2 X19.8797 Y71.1859 Z-0.2333 I-0.0125 J0.0
G2 Y71.2075 Z-0.2667 I0.0062 J0.0108
G2 X19.8984 Y71.1967 Z-0.3 I0.0063 J-0.0108
G2 X19.8797 Y71.1859 Z-0.3333 I-0.0125 J0.0
G2 Y71.2075 Z-0.3667 I0.0062 J0.0108
G2 X19.8984 Y71.1967 Z-0.4 I0.0063 J-0.0108
G2 X19.8797 Y71.1859 Z-0.4333 I-0.0125 J0.0
G2 Y71.2075 Z-0.4667 I0.0062 J0.0108
G2 X19.8984 Y71.1967 Z-0.5 I0.0063 J-0.0108
G2 X19.8797 Y71.1859 Z-0.5333 I-0.0125 J0.0
G2 Y71.2075 Z-0.5667 I0.0062 J0.0108
G2 X19.8984 Y71.1967 Z-0.6 I0.0063 J-0.0108
G2 X19.8797 Y71.1859 Z-0.6333 I-0.0125 J0.0
G2 Y71.2075 Z-0.6667 I0.0062 J0.0108
G2 X19.8984 Y71.1967 Z-0.7 I0.0063 J-0.0108
G2 X19.8797 Y71.1859 Z-0.7333 I-0.0125 J0.0
G2 Y71.2075 Z-0.7667 I0.0062 J0.0108
G2 X19.8984 Y71.1967 Z-0.8 I0.0063 J-0.0108
G2 X19.8797 Y71.1859 Z-0.8333 I-0.0125 J0.0
G2 Y71.2075 Z-0.8667 I0.0062 J0.0108
G2 X19.8984 Y71.1967 Z-0.9 I0.0063 J-0.0108
G2 X19.8797 Y71.1859 Z-0.9333 I-0.0125 J0.0
G2 Y71.2075 Z-0.9667 I0.0062 J0.0108
G2 X19.8984 Y71.1967 Z-1.0 I0.0063 J-0.0108
G2 X19.8797 Y71.1859 Z-1.0333 I-0.0125 J0.0
G2 Y71.2075 Z-1.0667 I0.0062 J0.0108
G2 X19.8984 Y71.1967 Z-1.1 I0.0063 J-0.0108
G2 X19.8797 Y71.1859 Z-1.1333 I-0.0125 J0.0
G2 Y71.2075 Z-1.1667 I0.0062 J0.0108
G2 X19.8984 Y71.1967 Z-1.2 I0.0063 J-0.0108
G2 X19.8797 Y71.1859 Z-1.2333 I-0.0125 J0.0
G2 Y71.2075 Z-1.2667 I0.0062 J0.0108
G2 X19.8984 Y71.1967 Z-1.3 I0.0063 J-0.0108
G2 X19.8797 Y71.1859 Z-1.3333 I-0.0125 J0.0
G2 Y71.2075 Z-1.3667 I0.0062 J0.0108
G2 X19.8984 Y71.1967 Z-1.4 I0.0063 J-0.0108
G2 X19.8797 Y71.1859 Z-1.4333 I-0.0125 J0.0
G2 Y71.2075 Z-1.4667 I0.0062 J0.0108
G2 X19.8984 Y71.1967 Z-1.5 I0.0063 J-0.0108
G2 X19.8797 Y71.1859 Z-1.5333 I-0.0125 J0.0
G2 Y71.2075 Z-1.5667 I0.0062 J0.0108
G2 X19.8984 Y71.1967 Z-1.6 I0.0063 J-0.0108
G2 X19.8797 Y71.1859 Z-1.6333 I-0.0125 J0.0
G2 Y71.2075 Z-1.6667 I0.0062 J0.0108
G2 X19.8984 Y71.1967 Z-1.7 I0.0063 J-0.0108
G2 X19.8797 Y71.1859 Z-1.7333 I-0.0125 J0.0
G2 Y71.2075 Z-1.7667 I0.0062 J0.0108
G2 X19.8984 Y71.1967 Z-1.8 I0.0063 J-0.0108
G2 X19.8797 Y71.1859 Z-1.8333 I-0.0125 J0.0
G2 Y71.2075 Z-1.8667 I0.0062 J0.0108
G2 X19.8984 Y71.1967 Z-1.9 I0.0063 J-0.0108
G2 X19.8797 Y71.1859 Z-1.9333 I-0.0125 J0.0
G2 Y71.2075 Z-1.9667 I0.0062 J0.0108
G2 X19.8984 Y71.1967 Z-2.0 I0.0063 J-0.0108
G2 X19.8797 Y71.1859 Z-2.0333 I-0.0125 J0.0
G2 Y71.2075 Z-2.0667 I0.0062 J0.0108
G2 X19.8984 Y71.1967 Z-2.1 I0.0063 J-0.0108
G2 X19.8797 Y71.1859 Z-2.1333 I-0.0125 J0.0
G2 Y71.2075 Z-2.1667 I0.0062 J0.0108
G2 X19.8984 Y71.1967 Z-2.2 I0.0063 J-0.0108
G2 X19.8797 Y71.1859 Z-2.2333 I-0.0125 J0.0
G2 Y71.2075 Z-2.2667 I0.0062 J0.0108
G2 X19.8984 Y71.1967 Z-2.3 I0.0063 J-0.0108
G2 X19.8797 Y71.1859 Z-2.3333 I-0.0125 J0.0
G2 Y71.2075 Z-2.3667 I0.0062 J0.0108
G2 X19.8984 Y71.1967 Z-2.4 I0.0063 J-0.0108
G2 X19.8797 Y71.1859 Z-2.4333 I-0.0125 J0.0
G2 Y71.2075 Z-2.4667 I0.0062 J0.0108
G2 X19.8984 Y71.1967 Z-2.5 I0.0063 J-0.0108
G2 X19.8797 Y71.1859 Z-2.5333 I-0.0125 J0.0
G2 Y71.2075 Z-2.5667 I0.0062 J0.0108
G2 X19.8984 Y71.1967 Z-2.6 I0.0063 J-0.0108
G2 X19.8797 Y71.1859 Z-2.6333 I-0.0125 J0.0
G2 Y71.2075 Z-2.6667 I0.0062 J0.0108
G2 X19.8984 Y71.1967 Z-2.7 I0.0063 J-0.0108
G2 X19.8797 Y71.1859 Z-2.7333 I-0.0125 J0.0
G2 Y71.2075 Z-2.7667 I0.0062 J0.0108
G2 X19.8984 Y71.1967 Z-2.8 I0.0063 J-0.0108
G2 X19.8797 Y71.1859 Z-2.8333 I-0.0125 J0.0
G2 Y71.2075 Z-2.8667 I0.0062 J0.0108
G2 X19.8984 Y71.1967 Z-2.9 I0.0063 J-0.0108
G2 X19.8797 Y71.1859 Z-2.9333 I-0.0125 J0.0
G2 Y71.2075 Z-2.9667 I0.0062 J0.0108
G2 X19.8984 Y71.1967 Z-3.0 I0.0063 J-0.0108
G2 X19.8797 Y71.1859 Z-3.0333 I-0.0125 J0.0
G2 Y71.2075 Z-3.0667 I0.0062 J0.0108
G2 X19.8984 Y71.1967 Z-3.1 I0.0063 J-0.0108
G2 X19.8797 Y71.1859 Z-3.1333 I-0.0125 J0.0
G2 Y71.2075 Z-3.1667 I0.0062 J0.0108
G2 X19.8984 Y71.1967 Z-3.2 I0.0063 J-0.0108
G2 X19.8797 Y71.1859 I-0.0125 J0.0
G2 Y71.2075 I0.0063 J0.0108
G2 X19.8984 Y71.1967 I0.0062 J-0.0108
G0 Z3.0
G0 Y87.585
G0 Z0.5
G1 F1000.0 Z0.0
G2 F2000.0 X19.8797 Y87.5741 Z-0.0333 I-0.0125 J0.0
G2 Y87.5958 Z-0.0667 I0.0062 J0.0108
G2 X19.8984 Y87.585 Z-0.1 I0.0063 J-0.0108
G2 X19.8797 Y87.5741 Z-0.1333 I-0.0125 J0.0
G2 Y87.5958 Z-0.1667 I0.0062 J0.0108
G2 X19.8984 Y87.585 Z-0.2 I0.0063 J-0.0108
G2 X19.8797 Y87.5741 Z-0.2333 I-0.0125 J0.0
G2 Y87.5958 Z-0.2667 I0.0062 J0.0108
G2 X19.8984 Y87.585 Z-0.3 I0.0063 J-0.0108
G2 X19.8797 Y87.5741 Z-0.3333 I-0.0125 J0.0
G2 Y87.5958 Z-0.3667 I0.0062 J0.0108
G2 X19.8984 Y87.585 Z-0.4 I0.0063 J-0.0108
G2 X19.8797 Y87.5741 Z-0.4333 I-0.0125 J0.0
G2 Y87.5958 Z-0.4667 I0.0062 J0.0108
G2 X19.8984 Y87.585 Z-0.5 I0.0063 J-0.0108
G2 X19.8797 Y87.5741 Z-0.5333 I-0.0125 J0.0
G2 Y87.5958 Z-0.5667 I0.0062 J0.0108
G2 X19.8984 Y87.585 Z-0.6 I0.0063 J-0.0108
G2 X19.8797 Y87.5741 Z-0.6333 I-0.0125 J0.0
G2 Y87.5958 Z-0.6667 I0.0062 J0.0108
G2 X19.8984 Y87.585 Z-0.7 I0.0063 J-0.0108
G2 X19.8797 Y87.5741 Z-0.7333 I-0.0125 J0.0
G2 Y87.5958 Z-0.7667 I0.0062 J0.0108
G2 X19.8984 Y87.585 Z-0.8 I0.0063 J-0.0108
G2 X19.8797 Y87.5741 Z-0.8333 I-0.0125 J0.0
G2 Y87.5958 Z-0.8667 I0.0062 J0.0108
G2 X19.8984 Y87.585 Z-0.9 I0.0063 J-0.0108
G2 X19.8797 Y87.5741 Z-0.9333 I-0.0125 J0.0
G2 Y87.5958 Z-0.9667 I0.0062 J0.0108
G2 X19.8984 Y87.585 Z-1.0 I0.0063 J-0.0108
G2 X19.8797 Y87.5741 Z-1.0333 I-0.0125 J0.0
G2 Y87.5958 Z-1.0667 I0.0062 J0.0108
G2 X19.8984 Y87.585 Z-1.1 I0.0063 J-0.0108
G2 X19.8797 Y87.5741 Z-1.1333 I-0.0125 J0.0
G2 Y87.5958 Z-1.1667 I0.0062 J0.0108
G2 X19.8984 Y87.585 Z-1.2 I0.0063 J-0.0108
G2 X19.8797 Y87.5741 Z-1.2333 I-0.0125 J0.0
G2 Y87.5958 Z-1.2667 I0.0062 J0.0108
G2 X19.8984 Y87.585 Z-1.3 I0.0063 J-0.0108
G2 X19.8797 Y87.5741 Z-1.3333 I-0.0125 J0.0
G2 Y87.5958 Z-1.3667 I0.0062 J0.0108
G2 X19.8984 Y87.585 Z-1.4 I0.0063 J-0.0108
G2 X19.8797 Y87.5741 Z-1.4333 I-0.0125 J0.0
G2 Y87.5958 Z-1.4667 I0.0062 J0.0108
G2 X19.8984 Y87.585 Z-1.5 I0.0063 J-0.0108
G2 X19.8797 Y87.5741 Z-1.5333 I-0.0125 J0.0
G2 Y87.5958 Z-1.5667 I0.0062 J0.0108
G2 X19.8984 Y87.585 Z-1.6 I0.0063 J-0.0108
G2 X19.8797 Y87.5741 Z-1.6333 I-0.0125 J0.0
G2 Y87.5958 Z-1.6667 I0.0062 J0.0108
G2 X19.8984 Y87.585 Z-1.7 I0.0063 J-0.0108
G2 X19.8797 Y87.5741 Z-1.7333 I-0.0125 J0.0
G2 Y87.5958 Z-1.7667 I0.0062 J0.0108
G2 X19.8984 Y87.585 Z-1.8 I0.0063 J-0.0108
G2 X19.8797 Y87.5741 Z-1.8333 I-0.0125 J0.0
G2 Y87.5958 Z-1.8667 I0.0062 J0.0108
G2 X19.8984 Y87.585 Z-1.9 I0.0063 J-0.0108
G2 X19.8797 Y87.5741 Z-1.9333 I-0.0125 J0.0
G2 Y87.5958 Z-1.9667 I0.0062 J0.0108
G2 X19.8984 Y87.585 Z-2.0 I0.0063 J-0.0108
G2 X19.8797 Y87.5741 Z-2.0333 I-0.0125 J0.0
G2 Y87.5958 Z-2.0667 I0.0062 J0.0108
G2 X19.8984 Y87.585 Z-2.1 I0.0063 J-0.0108
G2 X19.8797 Y87.5741 Z-2.1333 I-0.0125 J0.0
G2 Y87.5958 Z-2.1667 I0.0062 J0.0108
G2 X19.8984 Y87.585 Z-2.2 I0.0063 J-0.0108
G2 X19.8797 Y87.5741 Z-2.2333 I-0.0125 J0.0
G2 Y87.5958 Z-2.2667 I0.0062 J0.0108
G2 X19.8984 Y87.585 Z-2.3 I0.0063 J-0.0108
G2 X19.8797 Y87.5741 Z-2.3333 I-0.0125 J0.0
G2 Y87.5958 Z-2.3667 I0.0062 J0.0108
G2 X19.8984 Y87.585 Z-2.4 I0.0063 J-0.0108
G2 X19.8797 Y87.5741 Z-2.4333 I-0.0125 J0.0
G2 Y87.5958 Z-2.4667 I0.0062 J0.0108
G2 X19.8984 Y87.585 Z-2.5 I0.0063 J-0.0108
G2 X19.8797 Y87.5741 Z-2.5333 I-0.0125 J0.0
G2 Y87.5958 Z-2.5667 I0.0062 J0.0108
G2 X19.8984 Y87.585 Z-2.6 I0.0063 J-0.0108
G2 X19.8797 Y87.5741 Z-2.6333 I-0.0125 J0.0
G2 Y87.5958 Z-2.6667 I0.0062 J0.0108
G2 X19.8984 Y87.585 Z-2.7 I0.0063 J-0.0108
G2 X19.8797 Y87.5741 Z-2.7333 I-0.0125 J0.0
G2 Y87.5958 Z-2.7667 I0.0062 J0.0108
G2 X19.8984 Y87.585 Z-2.8 I0.0063 J-0.0108
G2 X19.8797 Y87.5741 Z-2.8333 I-0.0125 J0.0
G2 Y87.5958 Z-2.8667 I0.0062 J0.0108
G2 X19.8984 Y87.585 Z-2.9 I0.0063 J-0.0108
G2 X19.8797 Y87.5741 Z-2.9333 I-0.0125 J0.0
G2 Y87.5958 Z-2.9667 I0.0062 J0.0108
G2 X19.8984 Y87.585 Z-3.0 I0.0063 J-0.0108
G2 X19.8797 Y87.5741 Z-3.0333 I-0.0125 J0.0
G2 Y87.5958 Z-3.0667 I0.0062 J0.0108
G2 X19.8984 Y87.585 Z-3.1 I0.0063 J-0.0108
G2 X19.8797 Y87.5741 Z-3.1333 I-0.0125 J0.0
G2 Y87.5958 Z-3.1667 I0.0062 J0.0108
G2 X19.8984 Y87.585 Z-3.2 I0.0063 J-0.0108
G2 X19.8797 Y87.5741 I-0.0125 J0.0
G2 Y87.5958 I0.0063 J0.0108
G2 X19.8984 Y87.585 I0.0062 J-0.0108
G0 Z3.0
G0 Y103.9538
G0 Z0.5
G1 F1000.0 Z0.0
G2 F2000.0 X19.8797 Y103.943 Z-0.0333 I-0.0125 J0.0
G2 Y103.9647 Z-0.0667 I0.0062 J0.0108
G2 X19.8984 Y103.9538 Z-0.1 I0.0063 J-0.0108
G2 X19.8797 Y103.943 Z-0.1333 I-0.0125 J0.0
G2 Y103.9647 Z-0.1667 I0.0062 J0.0108
G2 X19.8984 Y103.9538 Z-0.2 I0.0063 J-0.0108
G2 X19.8797 Y103.943 Z-0.2333 I-0.0125 J0.0
G2 Y103.9647 Z-0.2667 I0.0062 J0.0108
G2 X19.8984 Y103.9538 Z-0.3 I0.0063 J-0.0108
G2 X19.8797 Y103.943 Z-0.3333 I-0.0125 J0.0
G2 Y103.9647 Z-0.3667 I0.0062 J0.0108
G2 X19.8984 Y103.9538 Z-0.4 I0.0063 J-0.0108
G2 X19.8797 Y103.943 Z-0.4333 I-0.0125 J0.0
G2 Y103.9647 Z-0.4667 I0.0062 J0.0108
G2 X19.8984 Y103.9538 Z-0.5 I0.0063 J-0.0108
G2 X19.8797 Y103.943 Z-0.5333 I-0.0125 J0.0
G2 Y103.9647 Z-0.5667 I0.0062 J0.0108
G2 X19.8984 Y103.9538 Z-0.6 I0.0063 J-0.0108
G2 X19.8797 Y103.943 Z-0.6333 I-0.0125 J0.0
G2 Y103.9647 Z-0.6667 I0.0062 J0.0108
G2 X19.8984 Y103.9538 Z-0.7 I0.0063 J-0.0108
G2 X19.8797 Y103.943 Z-0.7333 I-0.0125 J0.0
G2 Y103.9647 Z-0.7667 I0.0062 J0.0108
G2 X19.8984 Y103.9538 Z-0.8 I0.0063 J-0.0108
G2 X19.8797 Y103.943 Z-0.8333 I-0.0125 J0.0
G2 Y103.9647 Z-0.8667 I0.0062 J0.0108
G2 X19.8984 Y103.9538 Z-0.9 I0.0063 J-0.0108
G2 X19.8797 Y103.943 Z-0.9333 I-0.0125 J0.0
G2 Y103.9647 Z-0.9667 I0.0062 J0.0108
G2 X19.8984 Y103.9538 Z-1.0 I0.0063 J-0.0108
G2 X19.8797 Y103.943 Z-1.0333 I-0.0125 J0.0
G2 Y103.9647 Z-1.0667 I0.0062 J0.0108
G2 X19.8984 Y103.9538 Z-1.1 I0.0063 J-0.0108
G2 X19.8797 Y103.943 Z-1.1333 I-0.0125 J0.0
G2 Y103.9647 Z-1.1667 I0.0062 J0.0108
G2 X19.8984 Y103.9538 Z-1.2 I0.0063 J-0.0108
G2 X19.8797 Y103.943 Z-1.2333 I-0.0125 J0.0
G2 Y103.9647 Z-1.2667 I0.0062 J0.0108
G2 X19.8984 Y103.9538 Z-1.3 I0.0063 J-0.0108
G2 X19.8797 Y103.943 Z-1.3333 I-0.0125 J0.0
G2 Y103.9647 Z-1.3667 I0.0062 J0.0108
G2 X19.8984 Y103.9538 Z-1.4 I0.0063 J-0.0108
G2 X19.8797 Y103.943 Z-1.4333 I-0.0125 J0.0
G2 Y103.9647 Z-1.4667 I0.0062 J0.0108
G2 X19.8984 Y103.9538 Z-1.5 I0.0063 J-0.0108
G2 X19.8797 Y103.943 Z-1.5333 I-0.0125 J0.0
G2 Y103.9647 Z-1.5667 I0.0062 J0.0108
G2 X19.8984 Y103.9538 Z-1.6 I0.0063 J-0.0108
G2 X19.8797 Y103.943 Z-1.6333 I-0.0125 J0.0
G2 Y103.9647 Z-1.6667 I0.0062 J0.0108
G2 X19.8984 Y103.9538 Z-1.7 I0.0063 J-0.0108
G2 X19.8797 Y103.943 Z-1.7333 I-0.0125 J0.0
G2 Y103.9647 Z-1.7667 I0.0062 J0.0108
G2 X19.8984 Y103.9538 Z-1.8 I0.0063 J-0.0108
G2 X19.8797 Y103.943 Z-1.8333 I-0.0125 J0.0
G2 Y103.9647 Z-1.8667 I0.0062 J0.0108
G2 X19.8984 Y103.9538 Z-1.9 I0.0063 J-0.0108
G2 X19.8797 Y103.943 Z-1.9333 I-0.0125 J0.0
G2 Y103.9647 Z-1.9667 I0.0062 J0.0108
G2 X19.8984 Y103.9538 Z-2.0 I0.0063 J-0.0108
G2 X19.8797 Y103.943 Z-2.0333 I-0.0125 J0.0
G2 Y103.9647 Z-2.0667 I0.0062 J0.0108
G2 X19.8984 Y103.9538 Z-2.1 I0.0063 J-0.0108
G2 X19.8797 Y103.943 Z-2.1333 I-0.0125 J0.0
G2 Y103.9647 Z-2.1667 I0.0062 J0.0108
G2 X19.8984 Y103.9538 Z-2.2 I0.0063 J-0.0108
G2 X19.8797 Y103.943 Z-2.2333 I-0.0125 J0.0
G2 Y103.9647 Z-2.2667 I0.0062 J0.0108
G2 X19.8984 Y103.9538 Z-2.3 I0.0063 J-0.0108
G2 X19.8797 Y103.943 Z-2.3333 I-0.0125 J0.0
G2 Y103.9647 Z-2.3667 I0.0062 J0.0108
G2 X19.8984 Y103.9538 Z-2.4 I0.0063 J-0.0108
G2 X19.8797 Y103.943 Z-2.4333 I-0.0125 J0.0
G2 Y103.9647 Z-2.4667 I0.0062 J0.0108
G2 X19.8984 Y103.9538 Z-2.5 I0.0063 J-0.0108
G2 X19.8797 Y103.943 Z-2.5333 I-0.0125 J0.0
G2 Y103.9647 Z-2.5667 I0.0062 J0.0108
G2 X19.8984 Y103.9538 Z-2.6 I0.0063 J-0.0108
G2 X19.8797 Y103.943 Z-2.6333 I-0.0125 J0.0
G2 Y103.9647 Z-2.6667 I0.0062 J0.0108
G2 X19.8984 Y103.9538 Z-2.7 I0.0063 J-0.0108
G2 X19.8797 Y103.943 Z-2.7333 I-0.0125 J0.0
G2 Y103.9647 Z-2.7667 I0.0062 J0.0108
G2 X19.8984 Y103.9538 Z-2.8 I0.0063 J-0.0108
G2 X19.8797 Y103.943 Z-2.8333 I-0.0125 J0.0
G2 Y103.9647 Z-2.8667 I0.0062 J0.0108
G2 X19.8984 Y103.9538 Z-2.9 I0.0063 J-0.0108
G2 X19.8797 Y103.943 Z-2.9333 I-0.0125 J0.0
G2 Y103.9647 Z-2.9667 I0.0062 J0.0108
G2 X19.8984 Y103.9538 Z-3.0 I0.0063 J-0.0108
G2 X19.8797 Y103.943 Z-3.0333 I-0.0125 J0.0
G2 Y103.9647 Z-3.0667 I0.0062 J0.0108
G2 X19.8984 Y103.9538 Z-3.1 I0.0063 J-0.0108
G2 X19.8797 Y103.943 Z-3.1333 I-0.0125 J0.0
G2 Y103.9647 Z-3.1667 I0.0062 J0.0108
G2 X19.8984 Y103.9538 Z-3.2 I0.0063 J-0.0108
G2 X19.8797 Y103.943 I-0.0125 J0.0
G2 Y103.9647 I0.0063 J0.0108
G2 X19.8984 Y103.9538 I0.0062 J-0.0108
G0 Z3.0
G0 X19.9582 Y54.6719
G0 Z0.5
G1 F1000.0 Z0.0
G2 F2000.0 X19.9394 Y54.6611 Z-0.0333 I-0.0125 J0.0
G2 Y54.6828 Z-0.0667 I0.0063 J0.0108
G2 X19.9582 Y54.6719 Z-0.1 I0.0062 J-0.0108
G2 X19.9394 Y54.6611 Z-0.1333 I-0.0125 J0.0
G2 Y54.6828 Z-0.1667 I0.0063 J0.0108
G2 X19.9582 Y54.6719 Z-0.2 I0.0062 J-0.0108
G2 X19.9394 Y54.6611 Z-0.2333 I-0.0125 J0.0
G2 Y54.6828 Z-0.2667 I0.0063 J0.0108
G2 X19.9582 Y54.6719 Z-0.3 I0.0062 J-0.0108
G2 X19.9394 Y54.6611 Z-0.3333 I-0.0125 J0.0
G2 Y54.6828 Z-0.3667 I0.0063 J0.0108
G2 X19.9582 Y54.6719 Z-0.4 I0.0062 J-0.0108
G2 X19.9394 Y54.6611 Z-0.4333 I-0.0125 J0.0
G2 Y54.6828 Z-0.4667 I0.0063 J0.0108
G2 X19.9582 Y54.6719 Z-0.5 I0.0062 J-0.0108
G2 X19.9394 Y54.6611 Z-0.5333 I-0.0125 J0.0
G2 Y54.6828 Z-0.5667 I0.0063 J0.0108
G2 X19.9582 Y54.6719 Z-0.6 I0.0062 J-0.0108
G2 X19.9394 Y54.6611 Z-0.6333 I-0.0125 J0.0
G2 Y54.6828 Z-0.6667 I0.0063 J0.0108
G2 X19.9582 Y54.6719 Z-0.7 I0.0062 J-0.0108
G2 X19.9394 Y54.6611 Z-0.7333 I-0.0125 J0.0
G2 Y54.6828 Z-0.7667 I0.0063 J0.0108
G2 X19.9582 Y54.6719 Z-0.8 I0.0062 J-0.0108
G2 X19.9394 Y54.6611 Z-0.8333 I-0.0125 J0.0
G2 Y54.6828 Z-0.8667 I0.0063 J0.0108
G2 X19.9582 Y54.6719 Z-0.9 I0.0062 J-0.0108
G2 X19.9394 Y54.6611 Z-0.9333 I-0.0125 J0.0
G2 Y54.6828 Z-0.9667 I0.0063 J0.0108
G2 X19.9582 Y54.6719 Z-1.0 I0.0062 J-0.0108
G2 X19.9394 Y54.6611 Z-1.0333 I-0.0125 J0.0
G2 Y54.6828 Z-1.0667 I0.0063 J0.0108
G2 X19.9582 Y54.6719 Z-1.1 I0.0062 J-0.0108
G2 X19.9394 Y54.6611 Z-1.1333 I-0.0125 J0.0
G2 Y54.6828 Z-1.1667 I0.0063 J0.0108
G2 X19.9582 Y54.6719 Z-1.2 I0.0062 J-0.0108
G2 X19.9394 Y54.6611 Z-1.2333 I-0.0125 J0.0
G2 Y54.6828 Z-1.2667 I0.0063 J0.0108
G2 X19.9582 Y54.6719 Z-1.3 I0.0062 J-0.0108
G2 X19.9394 Y54.6611 Z-1.3333 I-0.0125 J0.0
G2 Y54.6828 Z-1.3667 I0.0063 J0.0108
G2 X19.9582 Y54.6719 Z-1.4 I0.0062 J-0.0108
G2 X19.9394 Y54.6611 Z-1.4333 I-0.0125 J0.0
G2 Y54.6828 Z-1.4667 I0.0063 J0.0108
G2 X19.9582 Y54.6719 Z-1.5 I0.0062 J-0.0108
G2 X19.9394 Y54.6611 Z-1.5333 I-0.0125 J0.0
G2 Y54.6828 Z-1.5667 I0.0063 J0.0108
G2 X19.9582 Y54.6719 Z-1.6 I0.0062 J-0.0108
G2 X19.9394 Y54.6611 Z-1.6333 I-0.0125 J0.0
G2 Y54.6828 Z-1.6667 I0.0063 J0.0108
G2 X19.9582 Y54.6719 Z-1.7 I0.0062 J-0.0108
G2 X19.9394 Y54.6611 Z-1.7333 I-0.0125 J0.0
G2 Y54.6828 Z-1.7667 I0.0063 J0.0108
G2 X19.9582 Y54.6719 Z-1.8 I0.0062 J-0.0108
G2 X19.9394 Y54.6611 Z-1.8333 I-0.0125 J0.0
G2 Y54.6828 Z-1.8667 I0.0063 J0.0108
G2 X19.9582 Y54.6719 Z-1.9 I0.0062 J-0.0108
G2 X19.9394 Y54.6611 Z-1.9333 I-0.0125 J0.0
G2 Y54.6828 Z-1.9667 I0.0063 J0.0108
G2 X19.9582 Y54.6719 Z-2.0 I0.0062 J-0.0108
G2 X19.9394 Y54.6611 Z-2.0333 I-0.0125 J0.0
G2 Y54.6828 Z-2.0667 I0.0063 J0.0108
G2 X19.9582 Y54.6719 Z-2.1 I0.0062 J-0.0108
G2 X19.9394 Y54.6611 Z-2.1333 I-0.0125 J0.0
G2 Y54.6828 Z-2.1667 I0.0063 J0.0108
G2 X19.9582 Y54.6719 Z-2.2 I0.0062 J-0.0108
G2 X19.9394 Y54.6611 Z-2.2333 I-0.0125 J0.0
G2 Y54.6828 Z-2.2667 I0.0063 J0.0108
G2 X19.9582 Y54.6719 Z-2.3 I0.0062 J-0.0108
G2 X19.9394 Y54.6611 Z-2.3333 I-0.0125 J0.0
G2 Y54.6828 Z-2.3667 I0.0063 J0.0108
G2 X19.9582 Y54.6719 Z-2.4 I0.0062 J-0.0108
G2 X19.9394 Y54.6611 Z-2.4333 I-0.0125 J0.0
G2 Y54.6828 Z-2.4667 I0.0063 J0.0108
G2 X19.9582 Y54.6719 Z-2.5 I0.0062 J-0.0108
G2 X19.9394 Y54.6611 Z-2.5333 I-0.0125 J0.0
G2 Y54.6828 Z-2.5667 I0.0063 J0.0108
G2 X19.9582 Y54.6719 Z-2.6 I0.0062 J-0.0108
G2 X19.9394 Y54.6611 Z-2.6333 I-0.0125 J0.0
G2 Y54.6828 Z-2.6667 I0.0063 J0.0108
G2 X19.9582 Y54.6719 Z-2.7 I0.0062 J-0.0108
G2 X19.9394 Y54.6611 Z-2.7333 I-0.0125 J0.0
G2 Y54.6828 Z-2.7667 I0.0063 J0.0108
G2 X19.9582 Y54.6719 Z-2.8 I0.0062 J-0.0108
G2 X19.9394 Y54.6611 Z-2.8333 I-0.0125 J0.0
G2 Y54.6828 Z-2.8667 I0.0063 J0.0108
G2 X19.9582 Y54.6719 Z-2.9 I0.0062 J-0.0108
G2 X19.9394 Y54.6611 Z-2.9333 I-0.0125 J0.0
G2 Y54.6828 Z-2.9667 I0.0063 J0.0108
G2 X19.9582 Y54.6719 Z-3.0 I0.0062 J-0.0108
G2 X19.9394 Y54.6611 Z-3.0333 I-0.0125 J0.0
G2 Y54.6828 Z-3.0667 I0.0063 J0.0108
G2 X19.9582 Y54.6719 Z-3.1 I0.0062 J-0.0108
G2 X19.9394 Y54.6611 Z-3.1333 I-0.0125 J0.0
G2 Y54.6828 Z-3.1667 I0.0063 J0.0108
G2 X19.9582 Y54.6719 Z-3.2 I0.0062 J-0.0108
G2 X19.9394 Y54.6611 I-0.0125 J0.0
G2 Y54.6828 I0.0063 J0.0108
G2 X19.9582 Y54.6719 I0.0062 J-0.0108
G0 Z3.0
G0 Y38.1177
G0 Z0.5
G1 F1000.0 Z0.0
G2 F2000.0 X19.9394 Y38.1069 Z-0.0333 I-0.0125 J0.0
G2 Y38.1285 Z-0.0667 I0.0063 J0.0108
G2 X19.9582 Y38.1177 Z-0.1 I0.0062 J-0.0108
G2 X19.9394 Y38.1069 Z-0.1333 I-0.0125 J0.0
G2 Y38.1285 Z-0.1667 I0.0063 J0.0108
G2 X19.9582 Y38.1177 Z-0.2 I0.0062 J-0.0108
G2 X19.9394 Y38.1069 Z-0.2333 I-0.0125 J0.0
G2 Y38.1285 Z-0.2667 I0.0063 J0.0108
G2 X19.9582 Y38.1177 Z-0.3 I0.0062 J-0.0108
G2 X19.9394 Y38.1069 Z-0.3333 I-0.0125 J0.0
G2 Y38.1285 Z-0.3667 I0.0063 J0.0108
G2 X19.9582 Y38.1177 Z-0.4 I0.0062 J-0.0108
G2 X19.9394 Y38.1069 Z-0.4333 I-0.0125 J0.0
G2 Y38.1285 Z-0.4667 I0.0063 J0.0108
G2 X19.9582 Y38.1177 Z-0.5 I0.0062 J-0.0108
G2 X19.9394 Y38.1069 Z-0.5333 I-0.0125 J0.0
G2 Y38.1285 Z-0.5667 I0.0063 J0.0108
G2 X19.9582 Y38.1177 Z-0.6 I0.0062 J-0.0108
G2 X19.9394 Y38.1069 Z-0.6333 I-0.0125 J0.0
G2 Y38.1285 Z-0.6667 I0.0063 J0.0108
G2 X19.9582 Y38.1177 Z-0.7 I0.0062 J-0.0108
G2 X19.9394 Y38.1069 Z-0.7333 I-0.0125 J0.0
G2 Y38.1285 Z-0.7667 I0.0063 J0.0108
G2 X19.9582 Y38.1177 Z-0.8 I0.0062 J-0.0108
G2 X19.9394 Y38.1069 Z-0.8333 I-0.0125 J0.0
G2 Y38.1285 Z-0.8667 I0.0063 J0.0108
G2 X19.9582 Y38.1177 Z-0.9 I0.0062 J-0.0108
G2 X19.9394 Y38.1069 Z-0.9333 I-0.0125 J0.0
G2 Y38.1285 Z-0.9667 I0.0063 J0.0108
G2 X19.9582 Y38.1177 Z-1.0 I0.0062 J-0.0108
G2 X19.9394 Y38.1069 Z-1.0333 I-0.0125 J0.0
G2 Y38.1285 Z-1.0667 I0.0063 J0.0108
G2 X19.9582 Y38.1177 Z-1.1 I0.0062 J-0.0108
G2 X19.9394 Y38.1069 Z-1.1333 I-0.0125 J0.0
G2 Y38.1285 Z-1.1667 I0.0063 J0.0108
G2 X19.9582 Y38.1177 Z-1.2 I0.0062 J-0.0108
G2 X19.9394 Y38.1069 Z-1.2333 I-0.0125 J0.0
G2 Y38.1285 Z-1.2667 I0.0063 J0.0108
G2 X19.9582 Y38.1177 Z-1.3 I0.0062 J-0.0108
G2 X19.9394 Y38.1069 Z-1.3333 I-0.0125 J0.0
G2 Y38.1285 Z-1.3667 I0.0063 J0.0108
G2 X19.9582 Y38.1177 Z-1.4 I0.0062 J-0.0108
G2 X19.9394 Y38.1069 Z-1.4333 I-0.0125 J0.0
G2 Y38.1285 Z-1.4667 I0.0063 J0.0108
G2 X19.9582 Y38.1177 Z-1.5 I0.0062 J-0.0108
G2 X19.9394 Y38.1069 Z-1.5333 I-0.0125 J0.0
G2 Y38.1285 Z-1.5667 I0.0063 J0.0108
G2 X19.9582 Y38.1177 Z-1.6 I0.0062 J-0.0108
G2 X19.9394 Y38.1069 Z-1.6333 I-0.0125 J0.0
G2 Y38.1285 Z-1.6667 I0.0063 J0.0108
G2 X19.9582 Y38.1177 Z-1.7 I0.0062 J-0.0108
G2 X19.9394 Y38.1069 Z-1.7333 I-0.0125 J0.0
G2 Y38.1285 Z-1.7667 I0.0063 J0.0108
G2 X19.9582 Y38.1177 Z-1.8 I0.0062 J-0.0108
G2 X19.9394 Y38.1069 Z-1.8333 I-0.0125 J0.0
G2 Y38.1285 Z-1.8667 I0.0063 J0.0108
G2 X19.9582 Y38.1177 Z-1.9 I0.0062 J-0.0108
G2 X19.9394 Y38.1069 Z-1.9333 I-0.0125 J0.0
G2 Y38.1285 Z-1.9667 I0.0063 J0.0108
G2 X19.9582 Y38.1177 Z-2.0 I0.0062 J-0.0108
G2 X19.9394 Y38.1069 Z-2.0333 I-0.0125 J0.0
G2 Y38.1285 Z-2.0667 I0.0063 J0.0108
G2 X19.9582 Y38.1177 Z-2.1 I0.0062 J-0.0108
G2 X19.9394 Y38.1069 Z-2.1333 I-0.0125 J0.0
G2 Y38.1285 Z-2.1667 I0.0063 J0.0108
G2 X19.9582 Y38.1177 Z-2.2 I0.0062 J-0.0108
G2 X19.9394 Y38.1069 Z-2.2333 I-0.0125 J0.0
G2 Y38.1285 Z-2.2667 I0.0063 J0.0108
G2 X19.9582 Y38.1177 Z-2.3 I0.0062 J-0.0108
G2 X19.9394 Y38.1069 Z-2.3333 I-0.0125 J0.0
G2 Y38.1285 Z-2.3667 I0.0063 J0.0108
G2 X19.9582 Y38.1177 Z-2.4 I0.0062 J-0.0108
G2 X19.9394 Y38.1069 Z-2.4333 I-0.0125 J0.0
G2 Y38.1285 Z-2.4667 I0.0063 J0.0108
G2 X19.9582 Y38.1177 Z-2.5 I0.0062 J-0.0108
G2 X19.9394 Y38.1069 Z-2.5333 I-0.0125 J0.0
G2 Y38.1285 Z-2.5667 I0.0063 J0.0108
G2 X19.9582 Y38.1177 Z-2.6 I0.0062 J-0.0108
G2 X19.9394 Y38.1069 Z-2.6333 I-0.0125 J0.0
G2 Y38.1285 Z-2.6667 I0.0063 J0.0108
G2 X19.9582 Y38.1177 Z-2.7 I0.0062 J-0.0108
G2 X19.9394 Y38.1069 Z-2.7333 I-0.0125 J0.0
G2 Y38.1285 Z-2.7667 I0.0063 J0.0108
G2 X19.9582 Y38.1177 Z-2.8 I0.0062 J-0.0108
G2 X19.9394 Y38.1069 Z-2.8333 I-0.0125 J0.0
G2 Y38.1285 Z-2.8667 I0.0063 J0.0108
G2 X19.9582 Y38.1177 Z-2.9 I0.0062 J-0.0108
G2 X19.9394 Y38.1069 Z-2.9333 I-0.0125 J0.0
G2 Y38.1285 Z-2.9667 I0.0063 J0.0108
G2 X19.9582 Y38.1177 Z-3.0 I0.0062 J-0.0108
G2 X19.9394 Y38.1069 Z-3.0333 I-0.0125 J0.0
G2 Y38.1285 Z-3.0667 I0.0063 J0.0108
G2 X19.9582 Y38.1177 Z-3.1 I0.0062 J-0.0108
G2 X19.9394 Y38.1069 Z-3.1333 I-0.0125 J0.0
G2 Y38.1285 Z-3.1667 I0.0063 J0.0108
G2 X19.9582 Y38.1177 Z-3.2 I0.0062 J-0.0108
G2 X19.9394 Y38.1069 I-0.0125 J0.0
G2 Y38.1285 I0.0063 J0.0108
G2 X19.9582 Y38.1177 I0.0062 J-0.0108
G0 Z3.0
G0 X19.8984 Y21.545
G0 Z0.5
G1 F1000.0 Z0.0
G2 F2000.0 X19.8797 Y21.5341 Z-0.0333 I-0.0125 J0.0
G2 Y21.5558 Z-0.0667 I0.0062 J0.0108
G2 X19.8984 Y21.545 Z-0.1 I0.0063 J-0.0108
G2 X19.8797 Y21.5341 Z-0.1333 I-0.0125 J0.0
G2 Y21.5558 Z-0.1667 I0.0062 J0.0108
G2 X19.8984 Y21.545 Z-0.2 I0.0063 J-0.0108
G2 X19.8797 Y21.5341 Z-0.2333 I-0.0125 J0.0
G2 Y21.5558 Z-0.2667 I0.0062 J0.0108
G2 X19.8984 Y21.545 Z-0.3 I0.0063 J-0.0108
G2 X19.8797 Y21.5341 Z-0.3333 I-0.0125 J0.0
G2 Y21.5558 Z-0.3667 I0.0062 J0.0108
G2 X19.8984 Y21.545 Z-0.4 I0.0063 J-0.0108
G2 X19.8797 Y21.5341 Z-0.4333 I-0.0125 J0.0
G2 Y21.5558 Z-0.4667 I0.0062 J0.0108
G2 X19.8984 Y21.545 Z-0.5 I0.0063 J-0.0108
G2 X19.8797 Y21.5341 Z-0.5333 I-0.0125 J0.0
G2 Y21.5558 Z-0.5667 I0.0062 J0.0108
G2 X19.8984 Y21.545 Z-0.6 I0.0063 J-0.0108
G2 X19.8797 Y21.5341 Z-0.6333 I-0.0125 J0.0
G2 Y21.5558 Z-0.6667 I0.0062 J0.0108
G2 X19.8984 Y21.545 Z-0.7 I0.0063 J-0.0108
G2 X19.8797 Y21.5341 Z-0.7333 I-0.0125 J0.0
G2 Y21.5558 Z-0.7667 I0.0062 J0.0108
G2 X19.8984 Y21.545 Z-0.8 I0.0063 J-0.0108
G2 X19.8797 Y21.5341 Z-0.8333 I-0.0125 J0.0
G2 Y21.5558 Z-0.8667 I0.0062 J0.0108
G2 X19.8984 Y21.545 Z-0.9 I0.0063 J-0.0108
G2 X19.8797 Y21.5341 Z-0.9333 I-0.0125 J0.0
G2 Y21.5558 Z-0.9667 I0.0062 J0.0108
G2 X19.8984 Y21.545 Z-1.0 I0.0063 J-0.0108
G2 X19.8797 Y21.5341 Z-1.0333 I-0.0125 J0.0
G2 Y21.5558 Z-1.0667 I0.0062 J0.0108
G2 X19.8984 Y21.545 Z-1.1 I0.0063 J-0.0108
G2 X19.8797 Y21.5341 Z-1.1333 I-0.0125 J0.0
G2 Y21.5558 Z-1.1667 I0.0062 J0.0108
G2 X19.8984 Y21.545 Z-1.2 I0.0063 J-0.0108
G2 X19.8797 Y21.5341 Z-1.2333 I-0.0125 J0.0
G2 Y21.5558 Z-1.2667 I0.0062 J0.0108
G2 X19.8984 Y21.545 Z-1.3 I0.0063 J-0.0108
G2 X19.8797 Y21.5341 Z-1.3333 I-0.0125 J0.0
G2 Y21.5558 Z-1.3667 I0.0062 J0.0108
G2 X19.8984 Y21.545 Z-1.4 I0.0063 J-0.0108
G2 X19.8797 Y21.5341 Z-1.4333 I-0.0125 J0.0
G2 Y21.5558 Z-1.4667 I0.0062 J0.0108
G2 X19.8984 Y21.545 Z-1.5 I0.0063 J-0.0108
G2 X19.8797 Y21.5341 Z-1.5333 I-0.0125 J0.0
G2 Y21.5558 Z-1.5667 I0.0062 J0.0108
G2 X19.8984 Y21.545 Z-1.6 I0.0063 J-0.0108
G2 X19.8797 Y21.5341 Z-1.6333 I-0.0125 J0.0
G2 Y21.5558 Z-1.6667 I0.0062 J0.0108
G2 X19.8984 Y21.545 Z-1.7 I0.0063 J-0.0108
G2 X19.8797 Y21.5341 Z-1.7333 I-0.0125 J0.0
G2 Y21.5558 Z-1.7667 I0.0062 J0.0108
G2 X19.8984 Y21.545 Z-1.8 I0.0063 J-0.0108
G2 X19.8797 Y21.5341 Z-1.8333 I-0.0125 J0.0
G2 Y21.5558 Z-1.8667 I0.0062 J0.0108
G2 X19.8984 Y21.545 Z-1.9 I0.0063 J-0.0108
G2 X19.8797 Y21.5341 Z-1.9333 I-0.0125 J0.0
G2 Y21.5558 Z-1.9667 I0.0062 J0.0108
G2 X19.8984 Y21.545 Z-2.0 I0.0063 J-0.0108
G2 X19.8797 Y21.5341 Z-2.0333 I-0.0125 J0.0
G2 Y21.5558 Z-2.0667 I0.0062 J0.0108
G2 X19.8984 Y21.545 Z-2.1 I0.0063 J-0.0108
G2 X19.8797 Y21.5341 Z-2.1333 I-0.0125 J0.0
G2 Y21.5558 Z-2.1667 I0.0062 J0.0108
G2 X19.8984 Y21.545 Z-2.2 I0.0063 J-0.0108
G2 X19.8797 Y21.5341 Z-2.2333 I-0.0125 J0.0
G2 Y21.5558 Z-2.2667 I0.0062 J0.0108
G2 X19.8984 Y21.545 Z-2.3 I0.0063 J-0.0108
G2 X19.8797 Y21.5341 Z-2.3333 I-0.0125 J0.0
G2 Y21.5558 Z-2.3667 I0.0062 J0.0108
G2 X19.8984 Y21.545 Z-2.4 I0.0063 J-0.0108
G2 X19.8797 Y21.5341 Z-2.4333 I-0.0125 J0.0
G2 Y21.5558 Z-2.4667 I0.0063 J0.0108
G2 X19.8984 Y21.545 Z-2.5 I0.0062 J-0.0108
G2 X19.8797 Y21.5341 Z-2.5333 I-0.0125 J0.0
G2 Y21.5558 Z-2.5667 I0.0063 J0.0108
G2 X19.8984 Y21.545 Z-2.6 I0.0062 J-0.0108
G2 X19.8797 Y21.5341 Z-2.6333 I-0.0125 J0.0
G2 Y21.5558 Z-2.6667 I0.0063 J0.0108
G2 X19.8984 Y21.545 Z-2.7 I0.0062 J-0.0108
G2 X19.8797 Y21.5341 Z-2.7333 I-0.0125 J0.0
G2 Y21.5558 Z-2.7667 I0.0063 J0.0108
G2 X19.8984 Y21.545 Z-2.8 I0.0062 J-0.0108
G2 X19.8797 Y21.5341 Z-2.8333 I-0.0125 J0.0
G2 Y21.5558 Z-2.8667 I0.0063 J0.0108
G2 X19.8984 Y21.545 Z-2.9 I0.0062 J-0.0108
G2 X19.8797 Y21.5341 Z-2.9333 I-0.0125 J0.0
G2 Y21.5558 Z-2.9667 I0.0063 J0.0108
G2 X19.8984 Y21.545 Z-3.0 I0.0062 J-0.0108
G2 X19.8797 Y21.5341 Z-3.0333 I-0.0125 J0.0
G2 Y21.5558 Z-3.0667 I0.0063 J0.0108
G2 X19.8984 Y21.545 Z-3.1 I0.0062 J-0.0108
G2 X19.8797 Y21.5341 Z-3.1333 I-0.0125 J0.0
G2 Y21.5558 Z-3.1667 I0.0063 J0.0108
G2 X19.8984 Y21.545 Z-3.2 I0.0062 J-0.0108
G2 X19.8797 Y21.5341 I-0.0125 J0.0
G2 Y21.5558 I0.0063 J0.0108
G2 X19.8984 Y21.545 I0.0062 J-0.0108
G0 Z3.0
G0 X39.7295 Y33.0237
G0 Z0.5
G1 F1000.0 Z0.0
G2 F2000.0 X39.7107 Y33.0129 Z-0.0333 I-0.0125 J0.0
G2 Y33.0346 Z-0.0667 I0.0063 J0.0108
G2 X39.7295 Y33.0237 Z-0.1 I0.0063 J-0.0108
G2 X39.7107 Y33.0129 Z-0.1333 I-0.0125 J0.0
G2 Y33.0346 Z-0.1667 I0.0063 J0.0108
G2 X39.7295 Y33.0237 Z-0.2 I0.0063 J-0.0108
G2 X39.7107 Y33.0129 Z-0.2333 I-0.0125 J0.0
G2 Y33.0346 Z-0.2667 I0.0063 J0.0108
G2 X39.7295 Y33.0237 Z-0.3 I0.0063 J-0.0108
G2 X39.7107 Y33.0129 Z-0.3333 I-0.0125 J0.0
G2 Y33.0346 Z-0.3667 I0.0063 J0.0108
G2 X39.7295 Y33.0237 Z-0.4 I0.0063 J-0.0108
G2 X39.7107 Y33.0129 Z-0.4333 I-0.0125 J0.0
G2 Y33.0346 Z-0.4667 I0.0063 J0.0108
G2 X39.7295 Y33.0237 Z-0.5 I0.0063 J-0.0108
G2 X39.7107 Y33.0129 Z-0.5333 I-0.0125 J0.0
G2 Y33.0346 Z-0.5667 I0.0063 J0.0108
G2 X39.7295 Y33.0237 Z-0.6 I0.0063 J-0.0108
G2 X39.7107 Y33.0129 Z-0.6333 I-0.0125 J0.0
G2 Y33.0346 Z-0.6667 I0.0063 J0.0108
G2 X39.7295 Y33.0237 Z-0.7 I0.0063 J-0.0108
G2 X39.7107 Y33.0129 Z-0.7333 I-0.0125 J0.0
G2 Y33.0346 Z-0.7667 I0.0063 J0.0108
G2 X39.7295 Y33.0237 Z-0.8 I0.0063 J-0.0108
G2 X39.7107 Y33.0129 Z-0.8333 I-0.0125 J0.0
G2 Y33.0346 Z-0.8667 I0.0063 J0.0108
G2 X39.7295 Y33.0237 Z-0.9 I0.0063 J-0.0108
G2 X39.7107 Y33.0129 Z-0.9333 I-0.0125 J0.0
G2 Y33.0346 Z-0.9667 I0.0063 J0.0108
G2 X39.7295 Y33.0237 Z-1.0 I0.0063 J-0.0108
G2 X39.7107 Y33.0129 Z-1.0333 I-0.0125 J0.0
G2 Y33.0346 Z-1.0667 I0.0063 J0.0108
G2 X39.7295 Y33.0237 Z-1.1 I0.0063 J-0.0108
G2 X39.7107 Y33.0129 Z-1.1333 I-0.0125 J0.0
G2 Y33.0346 Z-1.1667 I0.0063 J0.0108
G2 X39.7295 Y33.0237 Z-1.2 I0.0063 J-0.0108
G2 X39.7107 Y33.0129 Z-1.2333 I-0.0125 J0.0
G2 Y33.0346 Z-1.2667 I0.0063 J0.0108
G2 X39.7295 Y33.0237 Z-1.3 I0.0063 J-0.0108
G2 X39.7107 Y33.0129 Z-1.3333 I-0.0125 J0.0
G2 Y33.0346 Z-1.3667 I0.0063 J0.0108
G2 X39.7295 Y33.0237 Z-1.4 I0.0063 J-0.0108
G2 X39.7107 Y33.0129 Z-1.4333 I-0.0125 J0.0
G2 Y33.0346 Z-1.4667 I0.0063 J0.0108
G2 X39.7295 Y33.0237 Z-1.5 I0.0063 J-0.0108
G2 X39.7107 Y33.0129 Z-1.5333 I-0.0125 J0.0
G2 Y33.0346 Z-1.5667 I0.0063 J0.0108
G2 X39.7295 Y33.0237 Z-1.6 I0.0063 J-0.0108
G2 X39.7107 Y33.0129 Z-1.6333 I-0.0125 J0.0
G2 Y33.0346 Z-1.6667 I0.0063 J0.0108
G2 X39.7295 Y33.0237 Z-1.7 I0.0063 J-0.0108
G2 X39.7107 Y33.0129 Z-1.7333 I-0.0125 J0.0
G2 Y33.0346 Z-1.7667 I0.0063 J0.0108
G2 X39.7295 Y33.0237 Z-1.8 I0.0063 J-0.0108
G2 X39.7107 Y33.0129 Z-1.8333 I-0.0125 J0.0
G2 Y33.0346 Z-1.8667 I0.0063 J0.0108
G2 X39.7295 Y33.0237 Z-1.9 I0.0063 J-0.0108
G2 X39.7107 Y33.0129 Z-1.9333 I-0.0125 J0.0
G2 Y33.0346 Z-1.9667 I0.0063 J0.0108
G2 X39.7295 Y33.0237 Z-2.0 I0.0063 J-0.0108
G2 X39.7107 Y33.0129 Z-2.0333 I-0.0125 J0.0
G2 Y33.0346 Z-2.0667 I0.0063 J0.0108
G2 X39.7295 Y33.0237 Z-2.1 I0.0063 J-0.0108
G2 X39.7107 Y33.0129 Z-2.1333 I-0.0125 J0.0
G2 Y33.0346 Z-2.1667 I0.0063 J0.0108
G2 X39.7295 Y33.0237 Z-2.2 I0.0063 J-0.0108
G2 X39.7107 Y33.0129 Z-2.2333 I-0.0125 J0.0
G2 Y33.0346 Z-2.2667 I0.0063 J0.0108
G2 X39.7295 Y33.0237 Z-2.3 I0.0063 J-0.0108
G2 X39.7107 Y33.0129 Z-2.3333 I-0.0125 J0.0
G2 Y33.0346 Z-2.3667 I0.0063 J0.0108
G2 X39.7295 Y33.0237 Z-2.4 I0.0063 J-0.0108
G2 X39.7107 Y33.0129 Z-2.4333 I-0.0125 J0.0
G2 Y33.0346 Z-2.4667 I0.0063 J0.0108
G2 X39.7295 Y33.0237 Z-2.5 I0.0063 J-0.0108
G2 X39.7107 Y33.0129 Z-2.5333 I-0.0125 J0.0
G2 Y33.0346 Z-2.5667 I0.0063 J0.0108
G2 X39.7295 Y33.0237 Z-2.6 I0.0063 J-0.0108
G2 X39.7107 Y33.0129 Z-2.6333 I-0.0125 J0.0
G2 Y33.0346 Z-2.6667 I0.0063 J0.0108
G2 X39.7295 Y33.0237 Z-2.7 I0.0063 J-0.0108
G2 X39.7107 Y33.0129 Z-2.7333 I-0.0125 J0.0
G2 Y33.0346 Z-2.7667 I0.0063 J0.0108
G2 X39.7295 Y33.0237 Z-2.8 I0.0063 J-0.0108
G2 X39.7107 Y33.0129 Z-2.8333 I-0.0125 J0.0
G2 Y33.0346 Z-2.8667 I0.0063 J0.0108
G2 X39.7295 Y33.0237 Z-2.9 I0.0063 J-0.0108
G2 X39.7107 Y33.0129 Z-2.9333 I-0.0125 J0.0
G2 Y33.0346 Z-2.9667 I0.0063 J0.0108
G2 X39.7295 Y33.0237 Z-3.0 I0.0062 J-0.0108
G2 X39.7107 Y33.0129 Z-3.0333 I-0.0125 J0.0
G2 Y33.0346 Z-3.0667 I0.0063 J0.0108
G2 X39.7295 Y33.0237 Z-3.1 I0.0062 J-0.0108
G2 X39.7107 Y33.0129 Z-3.1333 I-0.0125 J0.0
G2 Y33.0346 Z-3.1667 I0.0063 J0.0108
G2 X39.7295 Y33.0237 Z-3.2 I0.0062 J-0.0108
G2 X39.7107 Y33.0129 I-0.0125 J0.0
G2 Y33.0346 I0.0063 J0.0108
G2 X39.7295 Y33.0237 I0.0062 J-0.0108
G0 Z3.0
G0 X54.9479 Y16.0822
G0 Z0.5
G1 F1000.0 Z0.0
G2 F2000.0 X54.9291 Y16.0713 Z-0.0333 I-0.0125 J0.0
G2 Y16.093 Z-0.0667 I0.0063 J0.0108
G2 X54.9479 Y16.0822 Z-0.1 I0.0063 J-0.0108
G2 X54.9291 Y16.0713 Z-0.1333 I-0.0125 J0.0
G2 Y16.093 Z-0.1667 I0.0063 J0.0108
G2 X54.9479 Y16.0822 Z-0.2 I0.0063 J-0.0108
G2 X54.9291 Y16.0713 Z-0.2333 I-0.0125 J0.0
G2 Y16.093 Z-0.2667 I0.0063 J0.0108
G2 X54.9479 Y16.0822 Z-0.3 I0.0063 J-0.0108
G2 X54.9291 Y16.0713 Z-0.3333 I-0.0125 J0.0
G2 Y16.093 Z-0.3667 I0.0063 J0.0108
G2 X54.9479 Y16.0822 Z-0.4 I0.0063 J-0.0108
G2 X54.9291 Y16.0713 Z-0.4333 I-0.0125 J0.0
G2 Y16.093 Z-0.4667 I0.0063 J0.0108
G2 X54.9479 Y16.0822 Z-0.5 I0.0063 J-0.0108
G2 X54.9291 Y16.0713 Z-0.5333 I-0.0125 J0.0
G2 Y16.093 Z-0.5667 I0.0063 J0.0108
G2 X54.9479 Y16.0822 Z-0.6 I0.0063 J-0.0108
G2 X54.9291 Y16.0713 Z-0.6333 I-0.0125 J0.0
G2 Y16.093 Z-0.6667 I0.0063 J0.0108
G2 X54.9479 Y16.0822 Z-0.7 I0.0063 J-0.0108
G2 X54.9291 Y16.0713 Z-0.7333 I-0.0125 J0.0
G2 Y16.093 Z-0.7667 I0.0063 J0.0108
G2 X54.9479 Y16.0822 Z-0.8 I0.0063 J-0.0108
G2 X54.9291 Y16.0713 Z-0.8333 I-0.0125 J0.0
G2 Y16.093 Z-0.8667 I0.0063 J0.0108
G2 X54.9479 Y16.0822 Z-0.9 I0.0063 J-0.0108
G2 X54.9291 Y16.0713 Z-0.9333 I-0.0125 J0.0
G2 Y16.093 Z-0.9667 I0.0063 J0.0108
G2 X54.9479 Y16.0822 Z-1.0 I0.0063 J-0.0108
G2 X54.9291 Y16.0713 Z-1.0333 I-0.0125 J0.0
G2 Y16.093 Z-1.0667 I0.0063 J0.0108
G2 X54.9479 Y16.0822 Z-1.1 I0.0063 J-0.0108
G2 X54.9291 Y16.0713 Z-1.1333 I-0.0125 J0.0
G2 Y16.093 Z-1.1667 I0.0063 J0.0108
G2 X54.9479 Y16.0822 Z-1.2 I0.0063 J-0.0108
G2 X54.9291 Y16.0713 Z-1.2333 I-0.0125 J0.0
G2 Y16.093 Z-1.2667 I0.0063 J0.0108
G2 X54.9479 Y16.0822 Z-1.3 I0.0063 J-0.0108
G2 X54.9291 Y16.0713 Z-1.3333 I-0.0125 J0.0
G2 Y16.093 Z-1.3667 I0.0063 J0.0108
G2 X54.9479 Y16.0822 Z-1.4 I0.0063 J-0.0108
G2 X54.9291 Y16.0713 Z-1.4333 I-0.0125 J0.0
G2 Y16.093 Z-1.4667 I0.0063 J0.0108
G2 X54.9479 Y16.0822 Z-1.5 I0.0063 J-0.0108
G2 X54.9291 Y16.0713 Z-1.5333 I-0.0125 J0.0
G2 Y16.093 Z-1.5667 I0.0063 J0.0108
G2 X54.9479 Y16.0822 Z-1.6 I0.0063 J-0.0108
G2 X54.9291 Y16.0713 Z-1.6333 I-0.0125 J0.0
G2 Y16.093 Z-1.6667 I0.0063 J0.0108
G2 X54.9479 Y16.0822 Z-1.7 I0.0063 J-0.0108
G2 X54.9291 Y16.0713 Z-1.7333 I-0.0125 J0.0
G2 Y16.093 Z-1.7667 I0.0063 J0.0108
G2 X54.9479 Y16.0822 Z-1.8 I0.0063 J-0.0108
G2 X54.9291 Y16.0713 Z-1.8333 I-0.0125 J0.0
G2 Y16.093 Z-1.8667 I0.0063 J0.0108
G2 X54.9479 Y16.0822 Z-1.9 I0.0063 J-0.0108
G2 X54.9291 Y16.0713 Z-1.9333 I-0.0125 J0.0
G2 Y16.093 Z-1.9667 I0.0063 J0.0108
G2 X54.9479 Y16.0822 Z-2.0 I0.0063 J-0.0108
G2 X54.9291 Y16.0713 Z-2.0333 I-0.0125 J0.0
G2 Y16.093 Z-2.0667 I0.0063 J0.0108
G2 X54.9479 Y16.0822 Z-2.1 I0.0063 J-0.0108
G2 X54.9291 Y16.0713 Z-2.1333 I-0.0125 J0.0
G2 Y16.093 Z-2.1667 I0.0063 J0.0108
G2 X54.9479 Y16.0822 Z-2.2 I0.0063 J-0.0108
G2 X54.9291 Y16.0713 Z-2.2333 I-0.0125 J0.0
G2 Y16.093 Z-2.2667 I0.0063 J0.0108
G2 X54.9479 Y16.0822 Z-2.3 I0.0063 J-0.0108
G2 X54.9291 Y16.0713 Z-2.3333 I-0.0125 J0.0
G2 Y16.093 Z-2.3667 I0.0063 J0.0108
G2 X54.9479 Y16.0822 Z-2.4 I0.0063 J-0.0108
G2 X54.9291 Y16.0713 Z-2.4333 I-0.0125 J0.0
G2 Y16.093 Z-2.4667 I0.0063 J0.0108
G2 X54.9479 Y16.0822 Z-2.5 I0.0063 J-0.0108
G2 X54.9291 Y16.0713 Z-2.5333 I-0.0125 J0.0
G2 Y16.093 Z-2.5667 I0.0063 J0.0108
G2 X54.9479 Y16.0822 Z-2.6 I0.0063 J-0.0108
G2 X54.9291 Y16.0713 Z-2.6333 I-0.0125 J0.0
G2 Y16.093 Z-2.6667 I0.0063 J0.0108
G2 X54.9479 Y16.0822 Z-2.7 I0.0063 J-0.0108
G2 X54.9291 Y16.0713 Z-2.7333 I-0.0125 J0.0
G2 Y16.093 Z-2.7667 I0.0063 J0.0108
G2 X54.9479 Y16.0822 Z-2.8 I0.0063 J-0.0108
G2 X54.9291 Y16.0713 Z-2.8333 I-0.0125 J0.0
G2 Y16.093 Z-2.8667 I0.0063 J0.0108
G2 X54.9479 Y16.0822 Z-2.9 I0.0063 J-0.0108
G2 X54.9291 Y16.0713 Z-2.9333 I-0.0125 J0.0
G2 Y16.093 Z-2.9667 I0.0063 J0.0108
G2 X54.9479 Y16.0822 Z-3.0 I0.0062 J-0.0108
G2 X54.9291 Y16.0713 Z-3.0333 I-0.0125 J0.0
G2 Y16.093 Z-3.0667 I0.0063 J0.0108
G2 X54.9479 Y16.0822 Z-3.1 I0.0062 J-0.0108
G2 X54.9291 Y16.0713 Z-3.1333 I-0.0125 J0.0
G2 Y16.093 Z-3.1667 I0.0063 J0.0108
G2 X54.9479 Y16.0822 Z-3.2 I0.0062 J-0.0108
G2 X54.9291 Y16.0713 I-0.0125 J0.0
G2 Y16.093 I0.0063 J0.0108
G2 X54.9479 Y16.0822 I0.0062 J-0.0108
G0 Z3.0
G0 X35.5409 Y3.7323
G0 Z0.5
G1 F1000.0 Z0.0
G2 F2000.0 X35.5222 Y3.7215 Z-0.0333 I-0.0125 J0.0
G2 Y3.7431 Z-0.0667 I0.0063 J0.0108
G2 X35.5409 Y3.7323 Z-0.1 I0.0063 J-0.0108
G2 X35.5222 Y3.7215 Z-0.1333 I-0.0125 J0.0
G2 Y3.7431 Z-0.1667 I0.0063 J0.0108
G2 X35.5409 Y3.7323 Z-0.2 I0.0063 J-0.0108
G2 X35.5222 Y3.7215 Z-0.2333 I-0.0125 J0.0
G2 Y3.7431 Z-0.2667 I0.0063 J0.0108
G2 X35.5409 Y3.7323 Z-0.3 I0.0063 J-0.0108
G2 X35.5222 Y3.7215 Z-0.3333 I-0.0125 J0.0
G2 Y3.7431 Z-0.3667 I0.0063 J0.0108
G2 X35.5409 Y3.7323 Z-0.4 I0.0063 J-0.0108
G2 X35.5222 Y3.7215 Z-0.4333 I-0.0125 J0.0
G2 Y3.7431 Z-0.4667 I0.0063 J0.0108
G2 X35.5409 Y3.7323 Z-0.5 I0.0063 J-0.0108
G2 X35.5222 Y3.7215 Z-0.5333 I-0.0125 J0.0
G2 Y3.7431 Z-0.5667 I0.0063 J0.0108
G2 X35.5409 Y3.7323 Z-0.6 I0.0063 J-0.0108
G2 X35.5222 Y3.7215 Z-0.6333 I-0.0125 J0.0
G2 Y3.7431 Z-0.6667 I0.0063 J0.0108
G2 X35.5409 Y3.7323 Z-0.7 I0.0063 J-0.0108
G2 X35.5222 Y3.7215 Z-0.7333 I-0.0125 J0.0
G2 Y3.7431 Z-0.7667 I0.0063 J0.0108
G2 X35.5409 Y3.7323 Z-0.8 I0.0063 J-0.0108
G2 X35.5222 Y3.7215 Z-0.8333 I-0.0125 J0.0
G2 Y3.7431 Z-0.8667 I0.0063 J0.0108
G2 X35.5409 Y3.7323 Z-0.9 I0.0063 J-0.0108
G2 X35.5222 Y3.7215 Z-0.9333 I-0.0125 J0.0
G2 Y3.7431 Z-0.9667 I0.0063 J0.0108
G2 X35.5409 Y3.7323 Z-1.0 I0.0063 J-0.0108
G2 X35.5222 Y3.7215 Z-1.0333 I-0.0125 J0.0
G2 Y3.7431 Z-1.0667 I0.0063 J0.0108
G2 X35.5409 Y3.7323 Z-1.1 I0.0063 J-0.0108
G2 X35.5222 Y3.7215 Z-1.1333 I-0.0125 J0.0
G2 Y3.7431 Z-1.1667 I0.0063 J0.0108
G2 X35.5409 Y3.7323 Z-1.2 I0.0063 J-0.0108
G2 X35.5222 Y3.7215 Z-1.2333 I-0.0125 J0.0
G2 Y3.7431 Z-1.2667 I0.0063 J0.0108
G2 X35.5409 Y3.7323 Z-1.3 I0.0063 J-0.0108
G2 X35.5222 Y3.7215 Z-1.3333 I-0.0125 J0.0
G2 Y3.7431 Z-1.3667 I0.0063 J0.0108
G2 X35.5409 Y3.7323 Z-1.4 I0.0063 J-0.0108
G2 X35.5222 Y3.7215 Z-1.4333 I-0.0125 J0.0
G2 Y3.7431 Z-1.4667 I0.0063 J0.0108
G2 X35.5409 Y3.7323 Z-1.5 I0.0063 J-0.0108
G2 X35.5222 Y3.7215 Z-1.5333 I-0.0125 J0.0
G2 Y3.7431 Z-1.5667 I0.0063 J0.0108
G2 X35.5409 Y3.7323 Z-1.6 I0.0063 J-0.0108
G2 X35.5222 Y3.7215 Z-1.6333 I-0.0125 J0.0
G2 Y3.7431 Z-1.6667 I0.0063 J0.0108
G2 X35.5409 Y3.7323 Z-1.7 I0.0063 J-0.0108
G2 X35.5222 Y3.7215 Z-1.7333 I-0.0125 J0.0
G2 Y3.7431 Z-1.7667 I0.0063 J0.0108
G2 X35.5409 Y3.7323 Z-1.8 I0.0063 J-0.0108
G2 X35.5222 Y3.7215 Z-1.8333 I-0.0125 J0.0
G2 Y3.7431 Z-1.8667 I0.0063 J0.0108
G2 X35.5409 Y3.7323 Z-1.9 I0.0063 J-0.0108
G2 X35.5222 Y3.7215 Z-1.9333 I-0.0125 J0.0
G2 Y3.7431 Z-1.9667 I0.0063 J0.0108
G2 X35.5409 Y3.7323 Z-2.0 I0.0063 J-0.0108
G2 X35.5222 Y3.7215 Z-2.0333 I-0.0125 J0.0
G2 Y3.7431 Z-2.0667 I0.0063 J0.0108
G2 X35.5409 Y3.7323 Z-2.1 I0.0063 J-0.0108
G2 X35.5222 Y3.7215 Z-2.1333 I-0.0125 J0.0
G2 Y3.7431 Z-2.1667 I0.0063 J0.0108
G2 X35.5409 Y3.7323 Z-2.2 I0.0063 J-0.0108
G2 X35.5222 Y3.7215 Z-2.2333 I-0.0125 J0.0
G2 Y3.7431 Z-2.2667 I0.0063 J0.0108
G2 X35.5409 Y3.7323 Z-2.3 I0.0063 J-0.0108
G2 X35.5222 Y3.7215 Z-2.3333 I-0.0125 J0.0
G2 Y3.7431 Z-2.3667 I0.0063 J0.0108
G2 X35.5409 Y3.7323 Z-2.4 I0.0063 J-0.0108
G2 X35.5222 Y3.7215 Z-2.4333 I-0.0125 J0.0
G2 Y3.7431 Z-2.4667 I0.0063 J0.0108
G2 X35.5409 Y3.7323 Z-2.5 I0.0063 J-0.0108
G2 X35.5222 Y3.7215 Z-2.5333 I-0.0125 J0.0
G2 Y3.7431 Z-2.5667 I0.0063 J0.0108
G2 X35.5409 Y3.7323 Z-2.6 I0.0063 J-0.0108
G2 X35.5222 Y3.7215 Z-2.6333 I-0.0125 J0.0
G2 Y3.7431 Z-2.6667 I0.0063 J0.0108
G2 X35.5409 Y3.7323 Z-2.7 I0.0063 J-0.0108
G2 X35.5222 Y3.7215 Z-2.7333 I-0.0125 J0.0
G2 Y3.7431 Z-2.7667 I0.0063 J0.0108
G2 X35.5409 Y3.7323 Z-2.8 I0.0063 J-0.0108
G2 X35.5222 Y3.7215 Z-2.8333 I-0.0125 J0.0
G2 Y3.7431 Z-2.8667 I0.0063 J0.0108
G2 X35.5409 Y3.7323 Z-2.9 I0.0063 J-0.0108
G2 X35.5222 Y3.7215 Z-2.9333 I-0.0125 J0.0
G2 Y3.7431 Z-2.9667 I0.0063 J0.0108
G2 X35.5409 Y3.7323 Z-3.0 I0.0062 J-0.0108
G2 X35.5222 Y3.7215 Z-3.0333 I-0.0125 J0.0
G2 Y3.7431 Z-3.0667 I0.0063 J0.0108
G2 X35.5409 Y3.7323 Z-3.1 I0.0062 J-0.0108
G2 X35.5222 Y3.7215 Z-3.1333 I-0.0125 J0.0
G2 Y3.7431 Z-3.1667 I0.0063 J0.0108
G2 X35.5409 Y3.7323 Z-3.2 I0.0062 J-0.0108
G2 X35.5222 Y3.7215 I-0.0125 J0.0
G2 Y3.7431 I0.0063 J0.0108
G2 X35.5409 Y3.7323 I0.0062 J-0.0108
( Profile1 )
S1000
G0 Z3.0
G0 X22.7656 Y-1.481
G0 Z0.5
G1 F1000.0 Z-0.1
G1 F2000.0 X0.3092
G2 X-1.2783 Y0.1065 I0.0 J1.5875
G1 Y128.2632
G2 X0.3092 Y129.8507 I1.5875 J0.0
G1 X62.4892
G2 X64.0767 Y128.2632 I0.0 J-1.5875
G1 Y0.1065
G2 X62.4892 Y-1.481 I-1.5875 J0.0
G1 X22.7656
G1 F1000.0 Z-0.2
G1 F2000.0 X0.3092
G2 X-1.2783 Y0.1065 I0.0 J1.5875
G1 Y128.2632
G2 X0.3092 Y129.8507 I1.5875 J0.0
G1 X62.4892
G2 X64.0767 Y128.2632 I0.0 J-1.5875
G1 Y0.1065
G2 X62.4892 Y-1.481 I-1.5875 J0.0
G1 X22.7656
G1 F1000.0 Z-0.3
G1 F2000.0 X0.3092
G2 X-1.2783 Y0.1065 I0.0 J1.5875
G1 Y128.2632
G2 X0.3092 Y129.8507 I1.5875 J0.0
G1 X62.4892
G2 X64.0767 Y128.2632 I0.0 J-1.5875
G1 Y0.1065
G2 X62.4892 Y-1.481 I-1.5875 J0.0
G1 X22.7656
G1 F1000.0 Z-0.4
G1 F2000.0 X0.3092
G2 X-1.2783 Y0.1065 I0.0 J1.5875
G1 Y128.2632
G2 X0.3092 Y129.8507 I1.5875 J0.0
G1 X62.4892
G2 X64.0767 Y128.2632 I0.0 J-1.5875
G1 Y0.1065
G2 X62.4892 Y-1.481 I-1.5875 J0.0
G1 X22.7656
G1 F1000.0 Z-0.5
G1 F2000.0 X0.3092
G2 X-1.2783 Y0.1065 I0.0 J1.5875
G1 Y128.2632
G2 X0.3092 Y129.8507 I1.5875 J0.0
G1 X62.4892
G2 X64.0767 Y128.2632 I0.0 J-1.5875
G1 Y0.1065
G2 X62.4892 Y-1.481 I-1.5875 J0.0
G1 X22.7656
G1 F1000.0 Z-0.6
G1 F2000.0 X0.3092
G2 X-1.2783 Y0.1065 I0.0 J1.5875
G1 Y128.2632
G2 X0.3092 Y129.8507 I1.5875 J0.0
G1 X62.4892
G2 X64.0767 Y128.2632 I0.0 J-1.5875
G1 Y0.1065
G2 X62.4892 Y-1.481 I-1.5875 J0.0
G1 X22.7656
G1 F1000.0 Z-0.7
G1 F2000.0 X0.3092
G2 X-1.2783 Y0.1065 I0.0 J1.5875
G1 Y128.2632
G2 X0.3092 Y129.8507 I1.5875 J0.0
G1 X62.4892
G2 X64.0767 Y128.2632 I0.0 J-1.5875
G1 Y0.1065
G2 X62.4892 Y-1.481 I-1.5875 J0.0
G1 X22.7656
G1 F1000.0 Z-0.8
G1 F2000.0 X0.3092
G2 X-1.2783 Y0.1065 I0.0 J1.5875
G1 Y128.2632
G2 X0.3092 Y129.8507 I1.5875 J0.0
G1 X62.4892
G2 X64.0767 Y128.2632 I0.0 J-1.5875
G1 Y0.1065
G2 X62.4892 Y-1.481 I-1.5875 J0.0
G1 X22.7656
G1 F1000.0 Z-0.9
G1 F2000.0 X0.3092
G2 X-1.2783 Y0.1065 I0.0 J1.5875
G1 Y128.2632
G2 X0.3092 Y129.8507 I1.5875 J0.0
G1 X62.4892
G2 X64.0767 Y128.2632 I0.0 J-1.5875
G1 Y0.1065
G2 X62.4892 Y-1.481 I-1.5875 J0.0
G1 X22.7656
G1 F1000.0 Z-1.0
G1 F2000.0 X0.3092
G2 X-1.2783 Y0.1065 I0.0 J1.5875
G1 Y128.2632
G2 X0.3092 Y129.8507 I1.5875 J0.0
G1 X62.4892
G2 X64.0767 Y128.2632 I0.0 J-1.5875
G1 Y0.1065
G2 X62.4892 Y-1.481 I-1.5875 J0.0
G1 X22.7656
G1 F1000.0 Z-1.1
G1 F2000.0 X0.3092
G2 X-1.2783 Y0.1065 I0.0 J1.5875
G1 Y128.2632
G2 X0.3092 Y129.8507 I1.5875 J0.0
G1 X62.4892
G2 X64.0767 Y128.2632 I0.0 J-1.5875
G1 Y0.1065
G2 X62.4892 Y-1.481 I-1.5875 J0.0
G1 X22.7656
G1 F1000.0 Z-1.2
G1 F2000.0 X0.3092
G2 X-1.2783 Y0.1065 I0.0 J1.5875
G1 Y128.2632
G2 X0.3092 Y129.8507 I1.5875 J0.0
G1 X62.4892
G2 X64.0767 Y128.2632 I0.0 J-1.5875
G1 Y0.1065
G2 X62.4892 Y-1.481 I-1.5875 J0.0
G1 X22.7656
G1 F1000.0 Z-1.3
G1 F2000.0 X0.3092
G2 X-1.2783 Y0.1065 I0.0 J1.5875
G1 Y25.4538
G1 Y26.4538 Z-1.2
G1 Y29.6288
G1 Y30.6288 Z-1.3
G1 Y105.96
G1 Y106.96 Z-1.2
G1 Y110.135
G1 Y111.135 Z-1.3
G1 Y128.2632
G2 X0.3092 Y129.8507 I1.5875 J0.0
G1 X62.4892
G2 X64.0767 Y128.2632 I0.0 J-1.5875
G1 Y113.1476
G1 Y112.1476 Z-1.2
G1 Y108.9726
G1 Y107.9726 Z-1.3
G1 Y20.9003
G1 Y19.9003 Z-1.2
G1 Y16.7253
G1 Y15.7253 Z-1.3
G1 Y0.1065
G2 X62.4892 Y-1.481 I-1.5875 J0.0
G1 X22.7656
G1 F1000.0 Z-1.4
G1 F2000.0 X0.3092
G2 X-1.2783 Y0.1065 I0.0 J1.5875
G1 Y25.4538
G1 Y26.4538 Z-1.2
G1 Y29.6288
G1 Y30.6288 Z-1.4
G1 Y105.96
G1 Y106.96 Z-1.2
G1 Y110.135
G1 Y111.135 Z-1.4
G1 Y128.2632
G2 X0.3092 Y129.8507 I1.5875 J0.0
G1 X62.4892
G2 X64.0767 Y128.2632 I0.0 J-1.5875
G1 Y113.1476
G1 Y112.1476 Z-1.2
G1 Y108.9726
G1 Y107.9726 Z-1.4
G1 Y20.9003
G1 Y19.9003 Z-1.2
G1 Y16.7253
G1 Y15.7253 Z-1.4
G1 Y0.1065
G2 X62.4892 Y-1.481 I-1.5875 J0.0
G1 X22.7656
G1 F1000.0 Z-1.5
G1 F2000.0 X0.3092
G2 X-1.2783 Y0.1065 I0.0 J1.5875
G1 Y25.4538
G1 Y26.4538 Z-1.2
G1 Y29.6288
G1 Y30.6288 Z-1.5
G1 Y105.96
G1 Y106.96 Z-1.2
G1 Y110.135
G1 Y111.135 Z-1.5
G1 Y128.2632
G2 X0.3092 Y129.8507 I1.5875 J0.0
G1 X62.4892
G2 X64.0767 Y128.2632 I0.0 J-1.5875
G1 Y113.1476
G1 Y112.1476 Z-1.2
G1 Y108.9726
G1 Y107.9726 Z-1.5
G1 Y20.9003
G1 Y19.9003 Z-1.2
G1 Y16.7253
G1 Y15.7253 Z-1.5
G1 Y0.1065
G2 X62.4892 Y-1.481 I-1.5875 J0.0
G1 X22.7656
G1 F1000.0 Z-1.6
G1 F2000.0 X0.3092
G2 X-1.2783 Y0.1065 I0.0 J1.5875
G1 Y25.4538
G1 Y26.4538 Z-1.2
G1 Y29.6288
G1 Y30.6288 Z-1.6
G1 Y105.96
G1 Y106.96 Z-1.2
G1 Y110.135
G1 Y111.135 Z-1.6
G1 Y128.2632
G2 X0.3092 Y129.8507 I1.5875 J0.0
G1 X62.4892
G2 X64.0767 Y128.2632 I0.0 J-1.5875
G1 Y113.1476
G1 Y112.1476 Z-1.2
G1 Y108.9726
G1 Y107.9726 Z-1.6
G1 Y20.9003
G1 Y19.9003 Z-1.2
G1 Y16.7253
G1 Y15.7253 Z-1.6
G1 Y0.1065
G2 X62.4892 Y-1.481 I-1.5875 J0.0
G1 X22.7656
G1 F1000.0 Z-1.7
G1 F2000.0 X0.3092
G2 X-1.2783 Y0.1065 I0.0 J1.5875
G1 Y25.4538
G1 Y26.4538 Z-1.2
G1 Y29.6288
G1 Y30.6288 Z-1.7
G1 Y105.96
G1 Y106.96 Z-1.2
G1 Y110.135
G1 Y111.135 Z-1.7
G1 Y128.2632
G2 X0.3092 Y129.8507 I1.5875 J0.0
G1 X62.4892
G2 X64.0767 Y128.2632 I0.0 J-1.5875
G1 Y113.1476
G1 Y112.1476 Z-1.2
G1 Y108.9726
G1 Y107.9726 Z-1.7
G1 Y20.9003
G1 Y19.9003 Z-1.2
G1 Y16.7253
G1 Y15.7253 Z-1.7
G1 Y0.1065
G2 X62.4892 Y-1.481 I-1.5875 J0.0
G1 X22.7656
G1 F1000.0 Z-1.8
G1 F2000.0 X0.3092
G2 X-1.2783 Y0.1065 I0.0 J1.5875
G1 Y25.4538
G1 Y26.4538 Z-1.2
G1 Y29.6288
G1 Y30.6288 Z-1.8
G1 Y105.96
G1 Y106.96 Z-1.2
G1 Y110.135
G1 Y111.135 Z-1.8
G1 Y128.2632
G2 X0.3092 Y129.8507 I1.5875 J0.0
G1 X62.4892
G2 X64.0767 Y128.2632 I0.0 J-1.5875
G1 Y113.1476
G1 Y112.1476 Z-1.2
G1 Y108.9726
G1 Y107.9726 Z-1.8
G1 Y20.9003
G1 Y19.9003 Z-1.2
G1 Y16.7253
G1 Y15.7253 Z-1.8
G1 Y0.1065
G2 X62.4892 Y-1.481 I-1.5875 J0.0
G1 X22.7656
G1 F1000.0 Z-1.9
G1 F2000.0 X0.3092
G2 X-1.2783 Y0.1065 I0.0 J1.5875
G1 Y25.4538
G1 Y26.4538 Z-1.2
G1 Y29.6288
G1 Y30.6288 Z-1.9
G1 Y105.96
G1 Y106.96 Z-1.2
G1 Y110.135
G1 Y111.135 Z-1.9
G1 Y128.2632
G2 X0.3092 Y129.8507 I1.5875 J0.0
G1 X62.4892
G2 X64.0767 Y128.2632 I0.0 J-1.5875
G1 Y113.1476
G1 Y112.1476 Z-1.2
G1 Y108.9726
G1 Y107.9726 Z-1.9
G1 Y20.9003
G1 Y19.9003 Z-1.2
G1 Y16.7253
G1 Y15.7253 Z-1.9
G1 Y0.1065
G2 X62.4892 Y-1.481 I-1.5875 J0.0
G1 X22.7656
G1 F1000.0 Z-2.0
G1 F2000.0 X0.3092
G2 X-1.2783 Y0.1065 I0.0 J1.5875
G1 Y25.4538
G1 Y26.4538 Z-1.2
G1 Y29.6288
G1 Y30.6288 Z-2.0
G1 Y105.96
G1 Y106.96 Z-1.2
G1 Y110.135
G1 Y111.135 Z-2.0
G1 Y128.2632
G2 X0.3092 Y129.8507 I1.5875 J0.0
G1 X62.4892
G2 X64.0767 Y128.2632 I0.0 J-1.5875
G1 Y113.1476
G1 Y112.1476 Z-1.2
G1 Y108.9726
G1 Y107.9726 Z-2.0
G1 Y20.9003
G1 Y19.9003 Z-1.2
G1 Y16.7253
G1 Y15.7253 Z-2.0
G1 Y0.1065
G2 X62.4892 Y-1.481 I-1.5875 J0.0
G1 X22.7656
G1 F1000.0 Z-2.1
G1 F2000.0 X0.3092
G2 X-1.2783 Y0.1065 I0.0 J1.5875
G1 Y25.4538
G1 Y26.4538 Z-1.2
G1 Y29.6288
G1 Y30.6288 Z-2.1
G1 Y105.96
G1 Y106.96 Z-1.2
G1 Y110.135
G1 Y111.135 Z-2.1
G1 Y128.2632
G2 X0.3092 Y129.8507 I1.5875 J0.0
G1 X62.4892
G2 X64.0767 Y128.2632 I0.0 J-1.5875
G1 Y113.1476
G1 Y112.1476 Z-1.2
G1 Y108.9726
G1 Y107.9726 Z-2.1
G1 Y20.9003
G1 Y19.9003 Z-1.2
G1 Y16.7253
G1 Y15.7253 Z-2.1
G1 Y0.1065
G2 X62.4892 Y-1.481 I-1.5875 J0.0
G1 X22.7656
G1 F1000.0 Z-2.2
G1 F2000.0 X0.3092
G2 X-1.2783 Y0.1065 I0.0 J1.5875
G1 Y25.4538
G1 Y26.4538 Z-1.2
G1 Y29.6288
G1 Y30.6288 Z-2.2
G1 Y105.96
G1 Y106.96 Z-1.2
G1 Y110.135
G1 Y111.135 Z-2.2
G1 Y128.2632
G2 X0.3092 Y129.8507 I1.5875 J0.0
G1 X62.4892
G2 X64.0767 Y128.2632 I0.0 J-1.5875
G1 Y113.1476
G1 Y112.1476 Z-1.2
G1 Y108.9726
G1 Y107.9726 Z-2.2
G1 Y20.9003
G1 Y19.9003 Z-1.2
G1 Y16.7253
G1 Y15.7253 Z-2.2
G1 Y0.1065
G2 X62.4892 Y-1.481 I-1.5875 J0.0
G1 X22.7656
G1 F1000.0 Z-2.3
G1 F2000.0 X0.3092
G2 X-1.2783 Y0.1065 I0.0 J1.5875
G1 Y25.4538
G1 Y26.4538 Z-1.2
G1 Y29.6288
G1 Y30.6288 Z-2.3
G1 Y105.96
G1 Y106.96 Z-1.2
G1 Y110.135
G1 Y111.135 Z-2.3
G1 Y128.2632
G2 X0.3092 Y129.8507 I1.5875 J0.0
G1 X62.4892
G2 X64.0767 Y128.2632 I0.0 J-1.5875
G1 Y113.1476
G1 Y112.1476 Z-1.2
G1 Y108.9726
G1 Y107.9726 Z-2.3
G1 Y20.9003
G1 Y19.9003 Z-1.2
G1 Y16.7253
G1 Y15.7253 Z-2.3
G1 Y0.1065
G2 X62.4892 Y-1.481 I-1.5875 J0.0
G1 X22.7656
G1 F1000.0 Z-2.4
G1 F2000.0 X0.3092
G2 X-1.2783 Y0.1065 I0.0 J1.5875
G1 Y25.4538
G1 Y26.4538 Z-1.2
G1 Y29.6288
G1 Y30.6288 Z-2.4
G1 Y105.96
G1 Y106.96 Z-1.2
G1 Y110.135
G1 Y111.135 Z-2.4
G1 Y128.2632
G2 X0.3092 Y129.8507 I1.5875 J0.0
G1 X62.4892
G2 X64.0767 Y128.2632 I0.0 J-1.5875
G1 Y113.1476
G1 Y112.1476 Z-1.2
G1 Y108.9726
G1 Y107.9726 Z-2.4
G1 Y20.9003
G1 Y19.9003 Z-1.2
G1 Y16.7253
G1 Y15.7253 Z-2.4
G1 Y0.1065
G2 X62.4892 Y-1.481 I-1.5875 J0.0
G1 X22.7656
G1 F1000.0 Z-2.5
G1 F2000.0 X0.3092
G2 X-1.2783 Y0.1065 I0.0 J1.5875
G1 Y25.4538
G1 Y26.4538 Z-1.2
G1 Y29.6288
G1 Y30.6288 Z-2.5
G1 Y105.96
G1 Y106.96 Z-1.2
G1 Y110.135
G1 Y111.135 Z-2.5
G1 Y128.2632
G2 X0.3092 Y129.8507 I1.5875 J0.0
G1 X62.4892
G2 X64.0767 Y128.2632 I0.0 J-1.5875
G1 Y113.1476
G1 Y112.1476 Z-1.2
G1 Y108.9726
G1 Y107.9726 Z-2.5
G1 Y20.9003
G1 Y19.9003 Z-1.2
G1 Y16.7253
G1 Y15.7253 Z-2.5
G1 Y0.1065
G2 X62.4892 Y-1.481 I-1.5875 J0.0
G1 X22.7656
G1 F1000.0 Z-2.6
G1 F2000.0 X0.3092
G2 X-1.2783 Y0.1065 I0.0 J1.5875
G1 Y25.4538
G1 Y26.4538 Z-1.2
G1 Y29.6288
G1 Y30.6288 Z-2.6
G1 Y105.96
G1 Y106.96 Z-1.2
G1 Y110.135
G1 Y111.135 Z-2.6
G1 Y128.2632
G2 X0.3092 Y129.8507 I1.5875 J0.0
G1 X62.4892
G2 X64.0767 Y128.2632 I0.0 J-1.5875
G1 Y113.1476
G1 Y112.1476 Z-1.2
G1 Y108.9726
G1 Y107.9726 Z-2.6
G1 Y20.9003
G1 Y19.9003 Z-1.2
G1 Y16.7253
G1 Y15.7253 Z-2.6
G1 Y0.1065
G2 X62.4892 Y-1.481 I-1.5875 J0.0
G1 X22.7656
G1 F1000.0 Z-2.7
G1 F2000.0 X0.3092
G2 X-1.2783 Y0.1065 I0.0 J1.5875
G1 Y25.4538
G1 Y26.4538 Z-1.2
G1 Y29.6288
G1 Y30.6288 Z-2.7
G1 Y105.96
G1 Y106.96 Z-1.2
G1 Y110.135
G1 Y111.135 Z-2.7
G1 Y128.2632
G2 X0.3092 Y129.8507 I1.5875 J0.0
G1 X62.4892
G2 X64.0767 Y128.2632 I0.0 J-1.5875
G1 Y113.1476
G1 Y112.1476 Z-1.2
G1 Y108.9726
G1 Y107.9726 Z-2.7
G1 Y20.9003
G1 Y19.9003 Z-1.2
G1 Y16.7253
G1 Y15.7253 Z-2.7
G1 Y0.1065
G2 X62.4892 Y-1.481 I-1.5875 J0.0
G1 X22.7656
G1 F1000.0 Z-2.8
G1 F2000.0 X0.3092
G2 X-1.2783 Y0.1065 I0.0 J1.5875
G1 Y25.4538
G1 Y26.4538 Z-1.2
G1 Y29.6288
G1 Y30.6288 Z-2.8
G1 Y105.96
G1 Y106.96 Z-1.2
G1 Y110.135
G1 Y111.135 Z-2.8
G1 Y128.2632
G2 X0.3092 Y129.8507 I1.5875 J0.0
G1 X62.4892
G2 X64.0767 Y128.2632 I0.0 J-1.5875
G1 Y113.1476
G1 Y112.1476 Z-1.2
G1 Y108.9726
G1 Y107.9726 Z-2.8
G1 Y20.9003
G1 Y19.9003 Z-1.2
G1 Y16.7253
G1 Y15.7253 Z-2.8
G1 Y0.1065
G2 X62.4892 Y-1.481 I-1.5875 J0.0
G1 X22.7656
G1 F1000.0 Z-2.9
G1 F2000.0 X0.3092
G2 X-1.2783 Y0.1065 I0.0 J1.5875
G1 Y25.4538
G1 Y26.4538 Z-1.2
G1 Y29.6288
G1 Y30.6288 Z-2.9
G1 Y105.96
G1 Y106.96 Z-1.2
G1 Y110.135
G1 Y111.135 Z-2.9
G1 Y128.2632
G2 X0.3092 Y129.8507 I1.5875 J0.0
G1 X62.4892
G2 X64.0767 Y128.2632 I0.0 J-1.5875
G1 Y113.1476
G1 Y112.1476 Z-1.2
G1 Y108.9726
G1 Y107.9726 Z-2.9
G1 Y20.9003
G1 Y19.9003 Z-1.2
G1 Y16.7253
G1 Y15.7253 Z-2.9
G1 Y0.1065
G2 X62.4892 Y-1.481 I-1.5875 J0.0
G1 X22.7656
G1 F1000.0 Z-3.0
G1 F2000.0 X0.3092
G2 X-1.2783 Y0.1065 I0.0 J1.5875
G1 Y25.4538
G1 Y26.4538 Z-1.2
G1 Y29.6288
G1 Y30.6288 Z-3.0
G1 Y105.96
G1 Y106.96 Z-1.2
G1 Y110.135
G1 Y111.135 Z-3.0
G1 Y128.2632
G2 X0.3092 Y129.8507 I1.5875 J0.0
G1 X62.4892
G2 X64.0767 Y128.2632 I0.0 J-1.5875
G1 Y113.1476
G1 Y112.1476 Z-1.2
G1 Y108.9726
G1 Y107.9726 Z-3.0
G1 Y20.9003
G1 Y19.9003 Z-1.2
G1 Y16.7253
G1 Y15.7253 Z-3.0
G1 Y0.1065
G2 X62.4892 Y-1.481 I-1.5875 J0.0
G1 X22.7656
G1 F1000.0 Z-3.1
G1 F2000.0 X0.3092
G2 X-1.2783 Y0.1065 I0.0 J1.5875
G1 Y25.4538
G1 Y26.4538 Z-1.2
G1 Y29.6288
G1 Y30.6288 Z-3.1
G1 Y105.96
G1 Y106.96 Z-1.2
G1 Y110.135
G1 Y111.135 Z-3.1
G1 Y128.2632
G2 X0.3092 Y129.8507 I1.5875 J0.0
G1 X62.4892
G2 X64.0767 Y128.2632 I0.0 J-1.5875
G1 Y113.1476
G1 Y112.1476 Z-1.2
G1 Y108.9726
G1 Y107.9726 Z-3.1
G1 Y20.9003
G1 Y19.9003 Z-1.2
G1 Y16.7253
G1 Y15.7253 Z-3.1
G1 Y0.1065
G2 X62.4892 Y-1.481 I-1.5875 J0.0
G1 X22.7656
G1 F1000.0 Z-3.2
G1 F2000.0 X0.3092
G2 X-1.2783 Y0.1065 I0.0 J1.5875
G1 Y25.4538
G1 Y26.4538 Z-1.2
G1 Y29.6288
G1 Y30.6288 Z-3.2
G1 Y105.96
G1 Y106.96 Z-1.2
G1 Y110.135
G1 Y111.135 Z-3.2
G1 Y128.2632
G2 X0.3092 Y129.8507 I1.5875 J0.0
G1 X62.4892
G2 X64.0767 Y128.2632 I0.0 J-1.5875
G1 Y113.1476
G1 Y112.1476 Z-1.2
G1 Y108.9726
G1 Y107.9726 Z-3.2
G1 Y20.9003
G1 Y19.9003 Z-1.2
G1 Y16.7253
G1 Y15.7253 Z-3.2
G1 Y0.1065
G2 X62.4892 Y-1.481 I-1.5875 J0.0
G1 X22.7656
G0 Z3.0
M5
M30
